!!!!SEGMENT: pl-cz--ii-188--010_orllowski-michall--missa-ex-g-et-resurrexit.krn
!!!cenid: 17xx:1014
!!!COM: Orłowski, Michał
!!!COM-rismID: pe30020336
!!!CDT: ~1700-~1799
!!!CNT:
!!!OPR: Missa ex G
!!!OTL: Et resurrexit
!!!OMV: 010
!!!PDT:
!!!AGN: Sacred; Mass
!!!SMS-siglum: PL-CZ
!!!SMS-shelfmark: II-188
!!!SMS-shelfwork: 001-010 M
!!!SMS-variant:
!!!SMS-altvar:
!!!NIFC-rismSourceID: 300000944
!!!NIFC-rismChildID: 300000944
!!!NIFC-islandoraID: pl-cz:32769
!!!URL-pdf-islandora: https://repozytorium.nifc.pl/islandora/object/pl-cz%3A32769/datastream/PDF/view
!!!URL-scan: https://polish.musicsources.pl/pl/lokalizacje/galeria/rekopisy/6776/1 @EN{Scan on Polish Music Sources Website} @PL{Skany w portalu Dziedzictwo Muzyki Polskiej w otwartym dostępie}
!!!IIIF:
!!!ONB-nifc: UWAGA: części Mszy: Kyrie, Gloria, Laudamus, Domine deus, Qui tollis, Quoniam, Cum santo, Patrem, Et incarnaus, Et resurrexit, Sanctus, Benedictus, Agnus dei. UWAGA: w niektórych głosach części zapisane w innej kolejności
!!!AIN: 1 bass 2 cor 1 organ 2 soprn 2 violn
!!!key: G
**kern	**dynam	**kern	**dynam	**kern	**dynam	**kern	**text	**kern	**text	**kern	**text	**kern	**kern
*part8	*part8	*part7	*part7	*part6	*part6	*part5	*part5	*part4	*part4	*part3	*part3	*part2	*part1
*staff8	*	*staff7	*	*staff6	*	*staff5	*staff5	*staff4	*staff4	*staff3	*staff3	*staff2	*staff1
*	*	*	*	*	*	*group1	*	*group1	*	*group1	*	*	*
*I"Fundamento.	*	*I"Violino Secundo.	*	*I"Violino Primo.	*	*I"Baſso.	*	*I"Canto 2do:	*	*I"Canto 1mo:	*	*I"Cornu 2do. in G.	*I"Cornu 1mo. in G.
*I'org	*	*I'vl 2	*	*I'vl 1	*	*I'B	*	*I'S 2	*	*I'S 1	*	*I'cor 2 in G	*I'cor 1 in G
*Iorgan	*	*Ivioln	*	*Ivioln	*	*Ibass	*	*Isoprn	*	*Isoprn	*	*Icor	*Icor
*ICklav	*	*ICstr	*	*ICstr	*	*ICvox	*	*ICvox	*	*ICvox	*	*ICbras	*ICbras
*clefF4	*	*clefG2	*	*clefG2	*	*clefF4	*	*clefC1	*	*clefC1	*	*clefG2	*clefG2
*	*	*	*	*	*	*	*	*	*	*	*	*ITrd3c5	*ITrd3c5
*k[f#]	*	*k[f#]	*	*k[f#]	*	*k[f#]	*	*k[f#]	*	*k[f#]	*	*k[f#]	*k[f#]
*G:	*	*G:	*	*G:	*	*G:	*	*G:	*	*G:	*	*G:	*G:
*M3/4	*	*M3/4	*	*M3/4	*	*M3/4	*	*M3/4	*	*M3/4	*	*M3/4	*M3/4
*all\right	*	*all\right	*	*all\right	*	*all\right	*	*all\right	*	*all\right	*	*all\right	*all\right
=1	=1	=1	=1	=1	=1	=1	=1	=1	=1	=1	=1	=1	=1
!LO:TX:t=P:problem=mixed beam	!	!	!	!	!	!	!	!	!	!	!	!	!
!LO:TX:a:B:t=Allo.	!	!LO:TX:a:B:t=Allo.	!	!LO:TX:a:B:t=Allo.	!	!	!	!LO:TX:a:B:t=Allo.	!	!LO:TX:a:B:t=Allo.	!	!LO:TX:a:B:t=Allo.	!
16G\LL	.	16d/LL	.	16b\LL	.	4G\	Et	4b\	Et	4gg\	Et	4g\	4b\
16GG/	.	16b/	.	16gg\	.	.	.	.	.	.	.	.	.
16AA/	.	16d/	.	16b\	.	.	.	.	.	.	.	.	.
16BB/JJ	.	16b/JJ	.	16gg\JJ	.	.	.	.	.	.	.	.	.
16C/LL	.	16d/LL	.	16b\LL	.	4G\	re-	4b\	re-	4gg\	re-	4g\	4b\
16D/	.	16b/	.	16gg\	.	.	.	.	.	.	.	.	.
16E/	.	16d/	.	16b\	.	.	.	.	.	.	.	.	.
16F#/JJ	.	16b/JJ	.	16gg\JJ	.	.	.	.	.	.	.	.	.
16G\LL	.	16d/LL	.	16b\LL	.	4G\	-ſur-	4b\	-ſur-	4gg\	-ſur-	4g\	4b\
16F#\	.	16b/	.	16gg\	.	.	.	.	.	.	.	.	.
16G\	.	16d/	.	16b\	.	.	.	.	.	.	.	.	.
16A\JJ	.	16b/JJ	.	16gg\JJ	.	.	.	.	.	.	.	.	.
=2	=2	=2	=2	=2	=2	=2	=2	=2	=2	=2	=2	=2	=2
16B\LL	.	16d/LL	.	16b\LL	.	4G\	-re-	4b\	-re-	4gg\	-re-	4g\	4b\
16G\	.	16b/	.	16gg\	.	.	.	.	.	.	.	.	.
16F#\	.	16d/	.	16b\	.	.	.	.	.	.	.	.	.
16G\JJ	.	16b/JJ	.	16gg\JJ	.	.	.	.	.	.	.	.	.
16D/LL	.	16d/LL	.	16b\LL	.	4G\	-xit	4b\	-xit	4gg\	-xit	4g\	4b\
16C/	.	16b/	.	16gg\	.	.	.	.	.	.	.	.	.
16BB/	.	16d/	.	16b\	.	.	.	.	.	.	.	.	.
16AA/JJ	.	16b/JJ	.	16gg\JJ	.	.	.	.	.	.	.	.	.
16GG/LL	.	16d/LL	.	16b\LL	.	4r	.	4r	.	4r	.	4r	4r
16AA/	.	16b/	.	16gg\	.	.	.	.	.	.	.	.	.
16BB/	.	16d/	.	16b\	.	.	.	.	.	.	.	.	.
16GG/JJ	.	16b/JJ	.	16gg\JJ	.	.	.	.	.	.	.	.	.
!LO:LB:g=original	!	!LO:LB:g=original	!	!	!	!	!	!	!	!	!	!	!
=3	=3	=3	=3	=3	=3	=3	=3	=3	=3	=3	=3	=3	=3
!	!	!	!	!	!	!	!	!	!LO:MO:mod=Ter-	!	!	!	!
16D\LL	.	16f#/LL	.	16a\LL	.	4D/	Ter-	4a\	Tre-	4ff#\	Ter-	4d/	4a\
16D\	.	16a/	.	16ff#\	.	.	.	.	.	.	.	.	.
16E\	.	16f#/	.	16a\	.	.	.	.	.	.	.	.	.
16F#\JJ	.	16a/JJ	.	16ff#\JJ	.	.	.	.	.	.	.	.	.
16G\LL	.	16f#/LL	.	16a\LL	.	4D/	-ti-	4a\	-ti-	4ff#\	-ti-	4d/	4a\
16A\	.	16a/	.	16ff#\	.	.	.	.	.	.	.	.	.
16B\	.	16f#/	.	16a\	.	.	.	.	.	.	.	.	.
!LO:SIC:v:s=16c#\JJ	!	!	!	!	!	!	!	!	!	!	!	!	!
16cn\JJ	.	16a/JJ	.	16ff#\JJ	.	.	.	.	.	.	.	.	.
16d\LL	.	16f#/LL	.	16a\LL	.	4D/	-a	4a\	-a	4ff#\	-a	4d/	4a\
!LO:SIC:v:s=16c#\	!	!	!	!	!	!	!	!	!	!	!	!	!
16c\	.	16a/	.	16ff#\	.	.	.	.	.	.	.	.	.
16d\	.	16f#/	.	16a\	.	.	.	.	.	.	.	.	.
16e\JJ	.	16a/JJ	.	16ff#\JJ	.	.	.	.	.	.	.	.	.
=4	=4	=4	=4	=4	=4	=4	=4	=4	=4	=4	=4	=4	=4
16f#\LL	.	16f#/LL	.	16a\LL	.	4D/	di-	4a\	di-	4ff#\	di-	4d/	4a\
16d\	.	16a/	.	16ff#\	.	.	.	.	.	.	.	.	.
16c#X\	.	16f#/	.	16a\	.	.	.	.	.	.	.	.	.
16d\JJ	.	16a/JJ	.	16ff#\JJ	.	.	.	.	.	.	.	.	.
16A\LL	.	16f#/LL	.	16a\LL	.	4D/	-e	4a\	-e	4ff#\	-e	4d/	4a\
16G\	.	16a/	.	16ff#\	.	.	.	.	.	.	.	.	.
16F#\	.	16f#/	.	16a\	.	.	.	.	.	.	.	.	.
16E\JJ	.	16a/JJ	.	16ff#\JJ	.	.	.	.	.	.	.	.	.
16D\LL	.	16f#/LL	.	16a\LL	.	8r	.	8r	.	8r	.	4r	4r
16E\	.	16a/	.	16ff#\	.	.	.	.	.	.	.	.	.
16F#\	.	16f#/	.	16a\	.	8D/	Se-	8a\	Se-	8ff#\	Se-	.	.
16D\JJ	.	16a/JJ	.	16ff#\JJ	.	.	.	.	.	.	.	.	.
=5	=5	=5	=5	=5	=5	=5	=5	=5	=5	=5	=5	=5	=5
4G\	.	16g/LL	.	16b\LL	.	4G\	-cun-	4b\	-cun-	4gg\	-cun-	4g\	4b\
.	.	16b/	.	16gg\	.	.	.	.	.	.	.	.	.
.	.	16g/	.	16b\	.	.	.	.	.	.	.	.	.
.	.	16b/JJ	.	16gg\JJ	.	.	.	.	.	.	.	.	.
!LO:TX:t=P:problem=mixed beam	!	!	!	!	!	!	!	!	!	!	!	!	!
8B\L	.	16g/LL	.	16b\LL	.	4G\	-du(m)	4b\	-du(m)	4gg\	-du(m)	4g\	4b\
.	.	16b/	.	16gg\	.	.	.	.	.	.	.	.	.
8G\	.	16g/	.	16b\	.	.	.	.	.	.	.	.	.
.	.	16b/JJ	.	16gg\JJ	.	.	.	.	.	.	.	.	.
8d\	.	16f#/LL	.	16a\LL	.	4D\	Scrip-	4a\	Scrip-	4ff#\	Scrip-	4d/	4a\
.	.	16a/	.	16ff#\	.	.	.	.	.	.	.	.	.
8D/J	.	16f#/	.	16a\	.	.	.	.	.	.	.	.	.
.	.	16a/JJ	.	16ff#\JJ	.	.	.	.	.	.	.	.	.
=6	=6	=6	=6	=6	=6	=6	=6	=6	=6	=6	=6	=6	=6
*	*	*	*	*	*	*2\right	*	*2\right	*	*2\right	*	*2\right	*2\right
8G\L	.	16g/LL	.	16b\LL	.	2G\	-tu-	2b\	-tu-	2gg\	-tu-	2g\	2b\
.	.	16b/	.	16gg\	.	.	.	.	.	.	.	.	.
16G\L	.	16g/	.	16b\	.	.	.	.	.	.	.	.	.
16A\JJ	.	16b/JJ	.	16gg\JJ	.	.	.	.	.	.	.	.	.
*	*	*rep	*	*	*	*	*	*	*	*	*	*	*
!LO:TX:t=P:problem=mixed beam	!	!	!	!	!	!	!	!	!	!	!	!	!
8B\L	.	16g/LL	.	16b\LL	.	.	.	.	.	.	.	.	.
.	.	16b/	.	16gg\	.	.	.	.	.	.	.	.	.
8G\	.	16g/	.	16b\	.	.	.	.	.	.	.	.	.
.	.	16b/JJ	.	16gg\JJ	.	.	.	.	.	.	.	.	.
*	*	*Xrep	*	*	*	*	*	*	*	*	*	*	*
8d\	.	16f#/LL	.	16a\LL	.	4D\	.	4a\	.	4ff#\	.	4d/	4a\
.	.	16a/	.	16ff#\	.	.	.	.	.	.	.	.	.
8D/J	.	16f#/	.	16a\	.	.	.	.	.	.	.	.	.
.	.	16a/JJ	.	16ff#\JJ	.	.	.	.	.	.	.	.	.
=7	=7	=7	=7	=7	=7	=7	=7	=7	=7	=7	=7	=7	=7
8G\L	.	16g/LL	.	16b\LL	.	2G\	.	2b\	.	2gg\	.	2g\	2b\
.	.	16b/	.	16gg\	.	.	.	.	.	.	.	.	.
16G\L	.	16g/	.	16b\	.	.	.	.	.	.	.	.	.
16A\JJ	.	16b/JJ	.	16gg\JJ	.	.	.	.	.	.	.	.	.
*	*	*rep	*	*	*	*	*	*	*	*	*	*	*
!LO:TX:t=P:problem=mixed beam	!	!	!	!	!	!	!	!	!	!	!	!	!
8B\L	.	16g/LL	.	16b\LL	.	.	.	.	.	.	.	.	.
.	.	16b/	.	16gg\	.	.	.	.	.	.	.	.	.
8G\	.	16g/	.	16b\	.	.	.	.	.	.	.	.	.
.	.	16b/JJ	.	16gg\JJ	.	.	.	.	.	.	.	.	.
*	*	*Xrep	*	*	*	*	*	*	*	*	*	*	*
8d\	.	16f#/LL	.	16a\LL	.	4D\	.	4a\	.	4ff#\	.	4d/	4a\
.	.	16a/	.	16ff#\	.	.	.	.	.	.	.	.	.
8D/J	.	16f#/	.	16a\	.	.	.	.	.	.	.	.	.
.	.	16a/JJ	.	16ff#\JJ	.	.	.	.	.	.	.	.	.
!	!	!	!	!	!	!	!	!	!	!	!	!LO:LB:g=original	!
=8	=8	=8	=8	=8	=8	=8	=8	=8	=8	=8	=8	=8	=8
4G\	.	4b 4d/	.	4gg 4b 4d/	.	4G\	-ras	4b\	-ras	4gg\	-ras	4g\	4b\
8G\L	.	16b/LL	.	4r	.	4r	.	4r	.	4r	.	4r	4r
.	.	16d/	.	.	.	.	.	.	.	.	.	.	.
8A\	.	16cc/	.	.	.	.	.	.	.	.	.	.	.
.	.	16d/JJ	.	.	.	.	.	.	.	.	.	.	.
*	*	*	*	*custos:cc	*	*	*	*	*	*	*	*	*
!	!	!	!	!LO:TX:b:i:t=Volti Subito	!	!	!	!	!	!	!	!	!
8B\	.	16dd/LL	.	4r	.	4r	.	4r	.	4r	.	4r	4r
.	.	16d/	.	.	.	.	.	.	.	.	.	.	.
8A\J	.	16cc/	.	.	.	.	.	.	.	.	.	.	.
.	.	16d/JJ	.	.	.	.	.	.	.	.	.	.	.
!	!	!	!	!LO:PB:g=original	!	!LO:LB:g=original	!	!LO:LB:g=original	!	!	!	!	!
=9	=9	=9	=9	=9	=9	=9	=9	=9	=9	=9	=9	=9	=9
!LO:TX:t=P:problem=mixed beam	!	!	!	!	!	!	!	!	!	!	!	!	!
16G\LL	.	16b\LL	.	16dd\LL	.	4r	.	4r	.	4r	.	4r	4r
16GG/	.	16gg\	.	16bb\	.	.	.	.	.	.	.	.	.
16AA/	.	16b\	.	16dd\	.	.	.	.	.	.	.	.	.
16BB/JJ	.	16gg\JJ	.	16bb\JJ	.	.	.	.	.	.	.	.	.
!	!	!LO:LB:g=original	!	!	!	!	!	!	!	!	!	!	!
16C\LL	.	16b\LL	.	16dd\LL	.	4G\	Et	4b\	Et	4gg\	Et	4g\	4b\
16D\	.	16gg\	.	16bb\	.	.	.	.	.	.	.	.	.
16E\	.	16b\	.	16dd\	.	.	.	.	.	.	.	.	.
16F#\JJ	.	16gg\JJ	.	16bb\JJ	.	.	.	.	.	.	.	.	.
!LO:TX:t=P:problem=mixed beam	!	!	!	!	!	!	!	!	!	!	!	!	!
8G\L	.	16b\LL	.	16dd\LL	.	4G\	aſ-	4b\	aſ-	4gg\	aſ-	4g\	4b\
.	.	16gg\	.	16bb\	.	.	.	.	.	.	.	.	.
8GG/J	.	16b\	.	16dd\	.	.	.	.	.	.	.	.	.
.	.	16gg\JJ	.	16bb\JJ	.	.	.	.	.	.	.	.	.
!LO:LB:g=original	!	!	!	!	!	!	!	!	!	!LO:LB:g=original	!	!	!LO:LB:g=original
=10	=10	=10	=10	=10	=10	=10	=10	=10	=10	=10	=10	=10	=10
8G\L	.	16b\LL	.	16dd\LL	.	4G\	-Cen-	4b\	-Cen-	4gg\	-cen-	4g\	4b\
.	.	16gg\	.	16bb\	.	.	.	.	.	.	.	.	.
8D\J	.	16b\	.	16dd\	.	.	.	.	.	.	.	.	.
.	.	16gg\JJ	.	16bb\JJ	.	.	.	.	.	.	.	.	.
*	*	*rep	*	*	*	*	*	*	*	*	*	*	*
8G\L	.	16b\LL	.	16dd\LL	.	4G\	-dit	4b\	-dit	4gg\	-dit	4g\	4b\
.	.	16gg\	.	16bb\	.	.	.	.	.	.	.	.	.
16B\L	.	16b\	.	16dd\	.	.	.	.	.	.	.	.	.
16A\JJ	.	16gg\JJ	.	16bb\JJ	.	.	.	.	.	.	.	.	.
*	*	*Xrep	*	*	*	*	*	*	*	*	*	*	*
*	*	*rep	*	*	*	*	*	*	*	*	*	*	*
8G\L	.	16b\LL	.	16dd\LL	.	4G\	in	4b\	in	4gg\	in	4g\	4b\
.	.	16gg\	.	16bb\	.	.	.	.	.	.	.	.	.
8B\J	.	16b\	.	16dd\	.	.	.	.	.	.	.	.	.
.	.	16gg\JJ	.	16bb\JJ	.	.	.	.	.	.	.	.	.
*	*	*Xrep	*	*	*	*	*	*	*	*	*	*	*
=11	=11	=11	=11	=11	=11	=11	=11	=11	=11	=11	=11	=11	=11
!	!	!	!	!	!	!	!LO:MO:mod=Cae-	!	!LO:MO:mod=Cae-	!	!LO:MO:mod=Cae-	!	!
8G\L	.	16b\LL	.	16dd\LL	.	4G\	Ce-	4b\	Ce-	4gg\	Ce-	4g\	4b\
.	.	16gg\	.	16bb\	.	.	.	.	.	.	.	.	.
8D\	.	16b\	.	16dd\	.	.	.	.	.	.	.	.	.
.	.	16gg\JJ	.	16bb\JJ	.	.	.	.	.	.	.	.	.
*	*	*rep	*	*	*	*	*	*	*	*	*	*	*
8G\	.	16b\LL	.	16dd\LL	.	4G\	-lum	4b\	-lum	4gg\	-lum	4g\	4b\
.	.	16gg\	.	16bb\	.	.	.	.	.	.	.	.	.
8A\	.	16b\	.	16dd\	.	.	.	.	.	.	.	.	.
.	.	16gg\JJ	.	16bb\JJ	.	.	.	.	.	.	.	.	.
*	*	*Xrep	*	*	*	*	*	*	*	*	*	*	*
*	*	*rep	*	*	*	*	*	*	*	*	*	*	*
8B\	.	16b\LL	.	16dd\LL	.	4r	.	4r	.	4r	.	4r	4r
.	.	16gg\	.	16bb\	.	.	.	.	.	.	.	.	.
8G\J	.	16b\	.	16dd\	.	.	.	.	.	.	.	.	.
.	.	16gg\JJ	.	16bb\JJ	.	.	.	.	.	.	.	.	.
*	*	*Xrep	*	*	*	*	*	*	*	*	*	*	*
=12	=12	=12	=12	=12	=12	=12	=12	=12	=12	=12	=12	=12	=12
16D/LL	.	16a\LL	.	16cc\LL	.	8D/	Se-	8a\	Se-	8ff#\	Se-	8d/L	8a\L
16DD/	.	16ff#\	.	16aa\	.	.	.	.	.	.	.	.	.
16EE/	.	16a\	.	16cc\	.	8D/	-det	8a\	-det	8ff#\	-det	8d/J	8a\
16FF#/JJ	.	16ff#\JJ	.	16aa\JJ	.	.	.	.	.	.	.	.	.
*	*	*rep	*	*	*	*	*	*	*	*	*	*tremolo	*
16GG/LL	.	16a\LL	.	16cc\LL	.	8D/	ad	8a\	ad	8ff#\	ad	8d/L	8a\
16AA/	.	16ff#\	.	16aa\	.	.	.	.	.	.	.	.	.
16BB/	.	16a\	.	16cc\	.	8D/	dex-	8a\	dex-	8ff#\	dex-	8d/	8a\
16C#X/JJ	.	16ff#\JJ	.	16aa\JJ	.	.	.	.	.	.	.	.	.
*	*	*Xrep	*	*	*	*	*	*	*	*	*	*	*
*	*	*rep	*	*	*	*	*	*	*	*	*	*	*
8D/L	.	16a\LL	.	16cc\LL	.	8D/	-te-	8a\	-te-	8ff#\	-te-	8d/	8a\
.	.	16ff#\	.	16aa\	.	.	.	.	.	.	.	.	.
8DD/J	.	16a\	.	16cc\	.	8D/	-ram	8a\	-ram	8ff#\	-ram	8d/J	8a\J
.	.	16ff#\JJ	.	16aa\JJ	.	.	.	.	.	.	.	.	.
*	*	*Xrep	*	*	*	*	*	*	*	*	*	*Xtremolo	*
=13	=13	=13	=13	=13	=13	=13	=13	=13	=13	=13	=13	=13	=13
8D/L	.	16a\LL	.	16cc\LL	.	2.D\	Pat-	2.a\	Pa-	2.ff#\	Pa-	2.d/	2.a\
.	.	16ff#\	.	16aa\	.	.	.	.	.	.	.	.	.
8C#X/J	.	16a\	.	16cc\	.	.	.	.	.	.	.	.	.
.	.	16ff#\JJ	.	16aa\JJ	.	.	.	.	.	.	.	.	.
*	*	*rep	*	*	*	*	*	*	*	*	*	*	*
8D\L	.	16a\LL	.	16cc\LL	.	.	.	.	.	.	.	.	.
.	.	16ff#\	.	16aa\	.	.	.	.	.	.	.	.	.
16F#\L	.	16a\	.	16cc\	.	.	.	.	.	.	.	.	.
16E\JJ	.	16ff#\JJ	.	16aa\JJ	.	.	.	.	.	.	.	.	.
*	*	*Xrep	*	*	*	*	*	*	*	*	*	*	*
*	*	*rep	*	*	*	*	*	*	*	*	*	*	*
8D\L	.	16a\LL	.	16cc\LL	.	.	.	.	.	.	.	.	.
.	.	16ff#\	.	16aa\	.	.	.	.	.	.	.	.	.
8F#\J	.	16a\	.	16cc\	.	.	.	.	.	.	.	.	.
.	.	16ff#\JJ	.	16aa\JJ	.	.	.	.	.	.	.	.	.
*	*	*Xrep	*	*	*	*	*	*	*	*	*	*	*
!	!	!	!	!LO:LB:g=original	!	!	!	!	!	!	!	!	!
=14	=14	=14	=14	=14	=14	=14	=14	=14	=14	=14	=14	=14	=14
8D/L	.	16a\LL	.	16cc\LL	.	2.D\	.	2.a\	.	2.ff#\	.	2.d/	2.a\
.	.	16ff#\	.	16aa\	.	.	.	.	.	.	.	.	.
8C#X/	.	16a\	.	16cc\	.	.	.	.	.	.	.	.	.
.	.	16ff#\JJ	.	16aa\JJ	.	.	.	.	.	.	.	.	.
*	*	*rep	*	*	*	*	*	*	*	*	*	*	*
8D/	.	16a\LL	.	16cc\LL	.	.	.	.	.	.	.	.	.
.	.	16ff#\	.	16aa\	.	.	.	.	.	.	.	.	.
8E/	.	16a\	.	16cc\	.	.	.	.	.	.	.	.	.
.	.	16ff#\JJ	.	16aa\JJ	.	.	.	.	.	.	.	.	.
*	*	*Xrep	*	*	*	*	*	*	*	*	*	*	*
*	*	*rep	*	*	*	*	*	*	*	*	*	*	*
8F#/	.	16a\LL	.	16cc\LL	.	.	.	.	.	.	.	.	.
.	.	16ff#\	.	16aa\	.	.	.	.	.	.	.	.	.
8D/J	.	16a\	.	16cc\	.	.	.	.	.	.	.	.	.
.	.	16ff#\JJ	.	16aa\JJ	.	.	.	.	.	.	.	.	.
*	*	*Xrep	*	*	*	*	*	*	*	*	*	*	*
=15	=15	=15	=15	=15	=15	=15	=15	=15	=15	=15	=15	=15	=15
4G\	.	4gg 4b 4d/	.	8bb\L	p	4G\	-ris	4b\	-tris	4gg\	-tris	4g\	4b\
.	.	.	.	16gg\L	.	.	.	.	.	.	.	.	.
.	.	.	.	16ff#\JJ	.	.	.	.	.	.	.	.	.
4r	.	4r	.	8gg\L	.	4r	.	4r	.	4r	.	4r	4r
.	.	.	.	8gg\	.	.	.	.	.	.	.	.	.
4r	.	4r	.	8ee\	.	4r	.	4r	.	4r	.	4r	4r
.	.	.	.	8gg\J	.	.	.	.	.	.	.	.	.
=16	=16	=16	=16	=16	=16	=16	=16	=16	=16	=16	=16	=16	=16
!	!	!	!	!	!	!LO:TX:a:t=7.	!	!	!	!	!	!	!
4d\	p	4b/	p	8dd\L	.	0.r	.	0.r	.	0.r	.	0.r	0.r
.	.	.	.	8gg\	.	.	.	.	.	.	.	.	.
4D/	.	4a/	.	8cc\	.	.	.	.	.	.	.	.	.
.	.	.	.	8gg\J	.	.	.	.	.	.	.	.	.
4G\	.	4g/	.	4b/	.	.	.	.	.	.	.	.	.
=17	=17	=17	=17	=17	=17	=17	=17	=17	=17	=17	=17	=17	=17
4G\	.	4b 4d/	.	8b\L	.	.	.	.	.	.	.	.	.
.	.	.	.	16gg'\L	.	.	.	.	.	.	.	.	.
.	.	.	.	16ff#'\JJ	.	.	.	.	.	.	.	.	.
4r	.	4r	.	8gg\L	.	.	.	.	.	.	.	.	.
.	.	.	.	8gg\	.	.	.	.	.	.	.	.	.
4r	.	4r	.	8ee\	.	.	.	.	.	.	.	.	.
.	.	.	.	8gg\J	.	.	.	.	.	.	.	.	.
!	!	!LO:LB:g=original	!	!	!	!	!	!	!	!	!	!	!
=18	=18	=18	=18	=18	=18	=18	=18	=18	=18	=18	=18	=18	=18
4d\	.	4b/	.	8dd\L	.	.	.	.	.	.	.	.	.
.	.	.	.	8gg\	.	.	.	.	.	.	.	.	.
4D/	.	4a/	.	8cc\	.	.	.	.	.	.	.	.	.
.	.	.	.	8gg\J	.	.	.	.	.	.	.	.	.
4G\	.	4g/	.	4b/	.	.	.	.	.	.	.	.	.
!LO:LB:g=original	!	!	!	!	!	!	!	!	!	!	!	!	!
=19	=19	=19	=19	=19	=19	=19	=19	=19	=19	=19	=19	=19	=19
*	*	*Xtuplet	*	*Xtuplet	*	*	*	*	*	*	*	*	*
8c\L	.	12cc/L	.	12ee\L	.	.	.	.	.	.	.	.	.
.	.	12b/	.	12dd\	.	.	.	.	.	.	.	.	.
8c\	.	.	.	.	.	.	.	.	.	.	.	.	.
.	.	12a/J	.	12cc\J	.	.	.	.	.	.	.	.	.
8d\	.	4g/	.	4b\	.	.	.	.	.	.	.	.	.
8d\J	.	.	.	.	.	.	.	.	.	.	.	.	.
8D/L	.	4f#t/	.	4aT/	.	.	.	.	.	.	.	.	.
8D/J	.	.	.	.	.	.	.	.	.	.	.	.	.
=20	=20	=20	=20	=20	=20	=20	=20	=20	=20	=20	=20	=20	=20
*	*	*	*	*tremolo	*	*	*	*	*	*	*	*	*
!	!	!	!	!	!	!	!	!	!	!LO:TX:a:i:t=Solo.	!	!	!
4G\	.	8g/L	.	8g/L	.	1.r	.	1.r	.	4g/	Et	1.r	1.r
.	.	8G/J	.	8g/	.	.	.	.	.	.	.	.	.
*	*	*tremolo	*	*	*	*	*	*	*	*	*	*	*
4r	.	8G/L	.	8g/	.	.	.	.	.	8g/	i-	.	.
.	.	8G/	.	8g/	.	.	.	.	.	8a\	-te-	.	.
4r	.	8G/	.	8g/	.	.	.	.	.	8b\	-rum	.	.
.	.	8G/J	.	8g/J	.	.	.	.	.	8g\	ven-	.	.
!	!	!	!	!	!	!	!	!	!	!LO:LB:g=original	!	!	!
=21	=21	=21	=21	=21	=21	=21	=21	=21	=21	=21	=21	=21	=21
*	*	*	*	*2\right	*	*	*	*	*	*	*	*	*
!LO:TX:a:t=2.	!	!	!	!	!	!	!	!	!	!	!	!	!
1.r	.	8d/L	.	8dd\L	.	.	.	.	.	4dd\	-tu-	.	.
.	.	8d/	.	8dd\	.	.	.	.	.	.	.	.	.
.	.	8d/	.	8dd\	.	.	.	.	.	4dd\	-rus	.	.
.	.	8d/	.	8dd\	.	.	.	.	.	.	.	.	.
.	.	8d/	.	8dd\	.	.	.	.	.	8r	.	.	.
.	.	8d/J	.	8dd\J	.	.	.	.	.	8dd\	eſt	.	.
=22	=22	=22	=22	=22	=22	=22	=22	=22	=22	=22	=22	=22	=22
*	*	*	*	*	*	*	*	*custos:a	*	*	*	*	*
.	.	8c#X/L	.	8ee\L	.	2.r	.	2.r	.	4.ee\	Cum	2.r	2.r
.	.	8c#X/	.	8ee\	.	.	.	.	.	.	.	.	.
.	.	8c#X/	.	8ee\	.	.	.	.	.	.	.	.	.
.	.	8c#X/J	.	8ee\J	.	.	.	.	.	8gg\L	.	.	.
*	*	*Xtremolo	*	*Xtremolo	*	*	*	*	*	*	*	*	*
.	.	8c#/L	.	8ee\L	.	.	.	.	.	8ee\	.	.	.
.	.	8d/J	.	8dd\J	.	.	.	.	.	8dd\J	.	.	.
!	!	!	!	!LO:LB:g=original	!	!	!	!LO:LB:g=original	!	!	!	!	!
=23	=23	=23	=23	=23	=23	=23	=23	=23	=23	=23	=23	=23	=23
*	*	*^	*	*	*	*	*	*	*	*	*	*	*
4r	.	4a/	2ryy	.	8.cc#X\L	.	4r	.	4r	.	8.cc#X\	glo-	4r	4r
.	.	.	.	.	16b\Jk	.	.	.	.	.	16b\	-ri-	.	.
4r	.	4A/	.	.	4a/	.	4r	.	4r	.	4a\	-a	4r	4r
!	!	!	!	!LO:DY:t=for	!	!	!	!	!	!	!	!	!	!
8D/L	f	8a/L	8f#\L	f	8aa\L	f	8D/	Ju-	8ff#\	Ju-	8aa\	Ju-	8d/L	8a\L
8D/J	.	8a/J	8f#\J	.	8aa\J	.	8D/	-di-	8ff#\	-di-	8aa\	-di-	8d/J	8a\J
!	!	!	!	!	!	!	!LO:PB:g=original	!	!	!	!	!	!LO:LB:g=original	!
=24	=24	=24	=24	=24	=24	=24	=24	=24	=24	=24	=24	=24	=24	=24
*	*	*2\right	*	*	*	*	*	*	*	*	*	*	*	*
*	*	*tremolo	*	*	*	*	*	*	*	*	*	*	*	*
8A\L	.	8a/L	8e\L	.	8gg\L	.	4A\	-Ca-	4ee\	-Ca-	4gg\	-Ca-	4a\	4a\
8A\J	.	8a/	8e\	.	16ee\L	.	.	.	.	.	.	.	.	.
.	.	.	.	.	16dd\JJ	.	.	.	.	.	.	.	.	.
*tremolo	*	*	*	*	*	*	*	*	*	*	*	*	*	*
8AA/L	.	8a/	8e\	.	16cc#X\LL	.	4AA/	-re	4cc#X\	-re	4ee\	-re	4a\	4a\
.	.	.	.	.	16dd\	.	.	.	.	.	.	.	.	.
8AA/	.	8a/	8e\	.	16ee\	.	.	.	.	.	.	.	.	.
.	.	.	.	.	16cc#\JJ	.	.	.	.	.	.	.	.	.
8AA/	.	8a/	8e\	.	8a/L	.	4r	.	4r	.	4r	.	4r	4r
8AA/J	.	8a/J	8e\J	.	8g/J	.	.	.	.	.	.	.	.	.
!	!	!	!	!	!	!	!	!	!	!	!	!	!	!LO:LB:g=original
=25	=25	=25	=25	=25	=25	=25	=25	=25	=25	=25	=25	=25	=25	=25
!	!	!	!	!LO:DY:t=pia	!	!LO:DY:t=pia	!	!	!	!	!	!	!	!
8D/L	p	8a/L	8f#\L	p	16f#/LL	p	8D\	Vi-	8dd\	Vi-	8ff#\	Vi-	2.r	2.r
.	.	.	.	.	16d/	.	.	.	.	.	.	.	.	.
8D/	.	8a/	8f#\	.	16e/	.	8D\	-vos	8dd\	-vos	8ff#\	-vos	.	.
.	.	.	.	.	16f#/JJ	.	.	.	.	.	.	.	.	.
8D/	.	8a/	8f#\	.	16g/LL	.	4D\	et	4dd\	et	4ff#\	et	.	.
.	.	.	.	.	16a/	.	.	.	.	.	.	.	.	.
8D/	.	8a/	8f#\	.	16b/	.	.	.	.	.	.	.	.	.
.	.	.	.	.	16cc#X/JJ	.	.	.	.	.	.	.	.	.
8D/	.	8a/	8f#\	.	16dd\LL	.	4D\	mor-	4ff#\	mor-	4aa\	mor-	.	.
.	.	.	.	.	16ff#\	.	.	.	.	.	.	.	.	.
8D/J	.	8a/J	8f#\J	.	16aa\	.	.	.	.	.	.	.	.	.
.	.	.	.	.	16ff#\JJ	.	.	.	.	.	.	.	.	.
*Xtremolo	*	*	*	*	*	*	*	*	*	*	*	*	*	*
=26	=26	=26	=26	=26	=26	=26	=26	=26	=26	=26	=26	=26	=26	=26
!	!	!	!	!LO:DY:t=fo&colon;	!	!	!	!	!	!	!	!	!	!
8A\L	f	8a/L	8e\L	f	8gg\L	f	4A\	-tu-	4ee\	-tu-	4gg\	-tu-	4a\	4a\
8A\J	.	8a/	8e\	.	16ee\L	.	.	.	.	.	.	.	.	.
.	.	.	.	.	16dd\JJ	.	.	.	.	.	.	.	.	.
*tremolo	*	*	*	*	*	*	*	*	*	*	*	*	*	*
8AA/L	.	8a/	8e\	.	16cc#X\LL	.	4AA/	-os	4cc#X\	-os	4ee\	-os	4a\	4a\
.	.	.	.	.	16dd\	.	.	.	.	.	.	.	.	.
8AA/	.	8a/	8e\	.	16ee\	.	.	.	.	.	.	.	.	.
.	.	.	.	.	16cc#\JJ	.	.	.	.	.	.	.	.	.
8AA/	.	8a/	8e\	.	8a/L	.	4r	.	4r	.	4r	.	4r	4r
8AA/J	.	8a/J	8e\J	.	8g/J	.	.	.	.	.	.	.	.	.
!	!	!	!	!	!	!	!	!	!	!	!LO:LB:g=original	!	!	!
=27	=27	=27	=27	=27	=27	=27	=27	=27	=27	=27	=27	=27	=27	=27
!	!	!	!	!LO:DY:t=pia	!	!LO:DY:a	!	!	!	!	!	!	!	!
8D/L	p	8a/L	8f#\L	p	16f#/LL	p	8D\	Cu-	8dd\	Cu-	8ff#\	Cu-	2.r	2.r
.	.	.	.	.	16d/	.	.	.	.	.	.	.	.	.
8D/	.	8a/	8f#\	.	16e/	.	8D\	-ius	8dd\	-ius	8ff#\	-ius	.	.
.	.	.	.	.	16f#/JJ	.	.	.	.	.	.	.	.	.
8D/	.	8a/	8f#\	.	16g/LL	.	8D\	Re-	8dd\	Re-	8ff#\	Re-	.	.
.	.	.	.	.	16a/	.	.	.	.	.	.	.	.	.
8D/	.	8a/	8f#\	.	16b/	.	16D\	-gni	16dd\	-gni	16ff#\	-gni	.	.
.	.	.	.	.	16cc#X/JJ	.	16D\	non	16dd\	non	16ff#\	non	.	.
8D/	.	8a/	8f#\	.	16dd\LL	.	8D\	e-	8dd\	e-	8ff#\	e-	.	.
.	.	.	.	.	16ff#\	.	.	.	.	.	.	.	.	.
8D/J	.	8a/J	8f#\J	.	16aa\	.	8D\	-rit	8ff#\	-rit	8aa\	-rit	.	.
.	.	.	.	.	16ff#\JJ	.	.	.	.	.	.	.	.	.
*Xtremolo	*	*	*	*	*	*	*	*	*	*	*	*	*	*
!	!	!	!	!	!LO:LB:g=original	!	!	!	!	!	!	!	!	!
=28	=28	=28	=28	=28	=28	=28	=28	=28	=28	=28	=28	=28	=28	=28
8A\L	f	8a/L	8e\L	f	8gg\L	.	4A\	Fi-	4ee\	fi-	4gg\	fi-	4a\	4a\
8A\J	.	8a/	8e\	.	16ee\L	.	.	.	.	.	.	.	.	.
.	.	.	.	.	16dd\JJ	.	.	.	.	.	.	.	.	.
*tremolo	*	*	*	*	*	*	*	*	*	*	*	*	*	*
8AA/L	.	8a/	8e\	.	16cc#X\LL	.	4AA/	-nis	4cc#X\	-nis	4ee\	-nis	4a\	4a\
.	.	.	.	.	16dd\	.	.	.	.	.	.	.	.	.
8AA/	.	8a/	8e\	.	16ee\	.	.	.	.	.	.	.	.	.
.	.	.	.	.	16cc#\JJ	.	.	.	.	.	.	.	.	.
8AA/	.	8a/	8e\	.	8a/L	.	4r	.	4r	.	4r	.	4r	4r
8AA/J	.	8a/J	8e\J	.	8g/J	.	.	.	.	.	.	.	.	.
!	!	!LO:LB:g=original	!	!	!	!	!	!	!LO:LB:g=original	!	!	!	!	!
=29	=29	=29	=29	=29	=29	=29	=29	=29	=29	=29	=29	=29	=29	=29
!	!	!	!	!	!	!LO:DY:t=pia	!	!	!	!	!	!	!	!
8D/L	p	8a/L	8f#\L	.	16f#/LL	p	4D\	non	4dd\	non	4ff#\	non	1.r	1.r
.	.	.	.	.	16d/	.	.	.	.	.	.	.	.	.
8D/	.	8a/	8f#\	.	16e/	.	.	.	.	.	.	.	.	.
.	.	.	.	.	16f#/JJ	.	.	.	.	.	.	.	.	.
*	*	*	*	*	*	*	*	*ij	*	*	*	*	*	*
8D/	.	8a/	8f#\	.	16g/LL	.	4D\	non	4dd\	no(n)	4ff#\	non	.	.
*	*	*	*	*	*	*	*	*Xij	*	*	*	*	*	*
.	.	.	.	.	16a/	.	.	.	.	.	.	.	.	.
8D/	.	8a/	8f#\	.	16b/	.	.	.	.	.	.	.	.	.
.	.	.	.	.	16cc#X/JJ	.	.	.	.	.	.	.	.	.
8D/	.	8a/	8f#\	.	16dd\LL	.	8D\	e-	8dd\	e-	8ff#\	e-	.	.
.	.	.	.	.	16ff#\	.	.	.	.	.	.	.	.	.
8D/J	.	8a/J	8f#\J	.	16aa\	.	8D\	-rit	8ff#\	-rit	8aa\	-rit	.	.
.	.	.	.	.	16ff#\JJ	.	.	.	.	.	.	.	.	.
*Xtremolo	*	*	*Xtremolo	*	*	*	*	*	*	*	*	*	*	*
*	*	*v	*v	*	*	*	*	*	*	*	*	*	*	*
=30	=30	=30	=30	=30	=30	=30	=30	=30	=30	=30	=30	=30	=30
!LO:TX:t=P:problem=mixed beam	!	!	!	!	!	!	!	!LO:TUP:a:problem=klamra łukowa	!	!LO:TUP:a:problem=klamra łukowa	!	!	!
8G\L	.	12b/L	f	12gg\L	f	8G\	E-	12b\L	e-	12gg\L	E-	.	.
.	.	12a/	.	12ff#\	.	.	.	12a\J	.	12ff#\J	.	.	.
8G\	.	.	.	.	.	8G\	-rit	.	.	.	.	.	.
.	.	12g/J	.	12ee\J	.	.	.	12g/	-rit	12ee\	-rit	.	.
8A\	.	4f#/	.	4dd\	.	4A\	fi-	4f#/	fi-	4dd\	fi-	.	.
8A\	.	.	.	.	.	.	.	.	.	.	.	.	.
8AA/	.	4e/	.	4cc#X\	.	4AA/	.	4eT/	.	4cc#Xt\	.	.	.
8AA/J	.	.	.	.	.	.	.	.	.	.	.	.	.
!LO:LB:g=original	!	!	!	!	!	!LO:LB:g=original	!	!	!	!	!	!	!
=31	=31	=31	=31	=31	=31	=31	=31	=31	=31	=31	=31	=31	=31
4D/	.	4f#/	.	4dd\	.	4D/	-nis	4f#/	-nis	4dd\	-nis	2.r	2.r
8d\L	f	4r	.	4r	.	4r	.	4r	.	4r	.	.	.
8cn\	.	.	.	.	.	.	.	.	.	.	.	.	.
8B\	.	4r	.	4r	.	4r	.	4r	.	4r	.	.	.
8A\J	.	.	.	.	.	.	.	.	.	.	.	.	.
=32	=32	=32	=32	=32	=32	=32	=32	=32	=32	=32	=32	=32	=32
4G\	.	16d/LL	f	16b\LL	f	4G\	Et	4b\	Et	4gg\	Et	4g\	4b\
.	.	16b/	.	16gg\	.	.	.	.	.	.	.	.	.
.	.	16d/	.	16b\	.	.	.	.	.	.	.	.	.
.	.	16b/JJ	.	16gg\JJ	.	.	.	.	.	.	.	.	.
4GG/	.	16d/LL	.	16b\LL	.	4G\	in	4b\	in	4gg\	in	4g\	4b\
.	.	16b/	.	16gg\	.	.	.	.	.	.	.	.	.
.	.	16d/	.	16b\	.	.	.	.	.	.	.	.	.
.	.	16b/JJ	.	16gg\JJ	.	.	.	.	.	.	.	.	.
!LO:N:vis=16	!	!	!	!	!	!	!	!	!	!	!	!	!
32r	.	16d/LL	.	16b\LL	.	4r	.	4r	.	4r	.	4r	4r
(32GG/LLL	.	.	.	.	.	.	.	.	.	.	.	.	.
32AA/	.	16b/	.	16gg\	.	.	.	.	.	.	.	.	.
32BB/	.	.	.	.	.	.	.	.	.	.	.	.	.
32C/	.	16d/	.	16b\	.	.	.	.	.	.	.	.	.
32D/	.	.	.	.	.	.	.	.	.	.	.	.	.
32E/	.	16b/JJ	.	16gg\JJ	.	.	.	.	.	.	.	.	.
32F#/JJJ)	.	.	.	.	.	.	.	.	.	.	.	.	.
!	!	!	!	!	!	!	!	!	!	!LO:LB:g=original	!	!	!
=33	=33	=33	=33	=33	=33	=33	=33	=33	=33	=33	=33	=33	=33
4G\	.	16d/LL	.	16b\LL	.	4.G\	Spi-	4.b\	Spi-	4.gg\	Spi-	4.g\	4.b\
.	.	16b/	.	16gg\	.	.	.	.	.	.	.	.	.
.	.	16d/	.	16b\	.	.	.	.	.	.	.	.	.
.	.	16b/JJ	.	16gg\JJ	.	.	.	.	.	.	.	.	.
*	*	*	*	*rep	*	*	*	*	*	*	*	*	*
4GG/	.	16d/LL	.	16b\LL	.	.	.	.	.	.	.	.	.
.	.	16b/	.	16gg\	.	.	.	.	.	.	.	.	.
.	.	16d/	.	16b\	.	8G\	-ri-	8b\	-ri-	8gg\	-ri-	8g\	8b\
.	.	16b/JJ	.	16gg\JJ	.	.	.	.	.	.	.	.	.
*	*	*	*	*Xrep	*	*	*	*	*	*	*	*	*
*	*	*	*	*rep	*	*	*	*	*	*	*	*	*
!LO:N:vis=16	!	!	!	!	!	!	!	!	!	!	!	!	!
32r	.	16d/LL	.	16b\LL	.	4G\	-tum	4b\	-tum	4gg\	-tum	4g\	4b\
(32GG/LLL	.	.	.	.	.	.	.	.	.	.	.	.	.
32AA/	.	16b/	.	16gg\	.	.	.	.	.	.	.	.	.
32BB/	.	.	.	.	.	.	.	.	.	.	.	.	.
32C/	.	16d/	.	16b\	.	.	.	.	.	.	.	.	.
32D/	.	.	.	.	.	.	.	.	.	.	.	.	.
32E/	.	16b/JJ	.	16gg\JJ	.	.	.	.	.	.	.	.	.
32F#/JJJ)	.	.	.	.	.	.	.	.	.	.	.	.	.
*	*	*	*	*Xrep	*	*	*	*	*	*	*	*	*
!	!	!	!	!LO:LB:g=original	!	!	!	!	!	!	!	!	!
=34	=34	=34	=34	=34	=34	=34	=34	=34	=34	=34	=34	=34	=34
!LO:TX:t=P:problem=mixed beam	!	!	!	!	!	!	!	!	!	!	!	!	!
8G\L	.	16d/LL	.	16b\LL	.	4r	.	4r	.	4r	.	4r	4r
.	.	16b/	.	16gg\	.	.	.	.	.	.	.	.	.
8GG/	.	16d/	.	16b\	.	.	.	.	.	.	.	.	.
.	.	16b/JJ	.	16gg\JJ	.	.	.	.	.	.	.	.	.
*	*	*	*	*rep	*	*	*	*	*	*	*	*	*
8BB/	.	16d/LL	.	16b\LL	.	4G\	San-	4b\	San-	4gg\	San-	4g\	4b\
.	.	16b/	.	16gg\	.	.	.	.	.	.	.	.	.
8D/	.	16d/	.	16b\	.	.	.	.	.	.	.	.	.
.	.	16b/JJ	.	16gg\JJ	.	.	.	.	.	.	.	.	.
*	*	*	*	*Xrep	*	*	*	*	*	*	*	*	*
*	*	*	*	*rep	*	*	*	*	*	*	*	*	*
8BB/	.	16d/LL	.	16b\LL	.	4G\	-ctum	4b\	-ctu(m)	4gg\	-ctum	4g\	4b\
.	.	16b/	.	16gg\	.	.	.	.	.	.	.	.	.
8GG/J	.	16d/	.	16b\	.	.	.	.	.	.	.	.	.
.	.	16b/JJ	.	16gg\JJ	.	.	.	.	.	.	.	.	.
*	*	*	*	*Xrep	*	*	*	*	*	*	*	*	*
=35	=35	=35	=35	=35	=35	=35	=35	=35	=35	=35	=35	=35	=35
4d\	.	16d/LL	.	16a\LL	.	8.D/	Do-	8.a\	Do-	8.ff#\	Do-	8.d/L	8.a\L
.	.	16a/	.	16ff#\	.	.	.	.	.	.	.	.	.
.	.	16d/	.	16a\	.	.	.	.	.	.	.	.	.
.	.	16a/JJ	.	16ff#\JJ	.	16D/	-mi-	16a\	-mi-	16ff#\	-mi-	16d/Jk	16a\Jk
*	*	*	*	*rep	*	*	*	*	*	*	*	*	*
4D/	.	16d/LL	.	16a\LL	.	4D/	-num	4a\	-num	4ff#\	-num	4d/	4a\
.	.	16a/	.	16ff#\	.	.	.	.	.	.	.	.	.
.	.	16d/	.	16a\	.	.	.	.	.	.	.	.	.
.	.	16a/JJ	.	16ff#\JJ	.	.	.	.	.	.	.	.	.
*	*	*	*	*Xrep	*	*	*	*	*	*	*	*	*
*	*	*	*	*rep	*	*	*	*	*	*	*	*	*
!LO:N:vis=16	!	!	!	!	!	!	!	!	!	!	!	!	!
32r	.	16d/LL	.	16a\LL	.	4r	.	4r	.	4r	.	4r	4r
(32D\LLL	.	.	.	.	.	.	.	.	.	.	.	.	.
32E\	.	16a/	.	16ff#\	.	.	.	.	.	.	.	.	.
32F#\	.	.	.	.	.	.	.	.	.	.	.	.	.
32G\	.	16d/	.	16a\	.	.	.	.	.	.	.	.	.
32A\	.	.	.	.	.	.	.	.	.	.	.	.	.
32B\	.	16a/JJ	.	16ff#\JJ	.	.	.	.	.	.	.	.	.
32c#X\JJJ)	.	.	.	.	.	.	.	.	.	.	.	.	.
*	*	*	*	*Xrep	*	*	*	*	*	*	*	*	*
!	!	!LO:LB:g=original	!	!	!	!	!	!LO:LB:g=original	!	!	!	!LO:LB:g=original	!
=36	=36	=36	=36	=36	=36	=36	=36	=36	=36	=36	=36	=36	=36
4d\	.	16d/LL	.	16a\LL	.	4.D/	Et	4a\	et	4.ff#\	Et	4.d/	4.a\
.	.	16a/	.	16ff#\	.	.	.	.	.	.	.	.	.
.	.	16d/	.	16a\	.	.	.	.	.	.	.	.	.
.	.	16a/JJ	.	16ff#\JJ	.	.	.	.	.	.	.	.	.
*	*	*	*	*rep	*	*	*	*	*	*	*	*	*
4D/	.	16d/LL	.	16a\LL	.	.	.	8ryy	.	.	.	.	.
.	.	16a/	.	16ff#\	.	.	.	.	.	.	.	.	.
.	.	16d/	.	16a\	.	8D/	vi-	8a\	vi-	8ff#\	Vi-	8d/L	8a\L
.	.	16a/JJ	.	16ff#\JJ	.	.	.	.	.	.	.	.	.
*	*	*	*	*Xrep	*	*	*	*	*	*	*	*	*
*	*	*	*	*rep	*	*	*	*	*	*	*	*	*
!LO:N:vis=16	!	!	!	!	!	!	!	!	!	!	!	!	!
32r	.	16d/LL	.	16a\LL	.	8D/	-vi-	8a\	-vi-	8ff#\	-vi-	8d/	8a\
(32D\LLL	.	.	.	.	.	.	.	.	.	.	.	.	.
32E\	.	16a/	.	16ff#\	.	.	.	.	.	.	.	.	.
32F#\	.	.	.	.	.	.	.	.	.	.	.	.	.
32G\	.	16d/	.	16a\	.	8D/	-fi-	8a\	-fi-	8ff#\	-fi-	8d/J	8a\J
32A\	.	.	.	.	.	.	.	.	.	.	.	.	.
32B\	.	16a/JJ	.	16ff#\JJ	.	.	.	.	.	.	.	.	.
!LO:SIC:v:s=32c#\JJJ)	!	!	!	!	!	!	!	!	!	!	!	!	!
32c\JJJ)	.	.	.	.	.	.	.	.	.	.	.	.	.
*	*	*	*	*Xrep	*	*	*	*	*	*	*	*	*
=37	=37	=37	=37	=37	=37	=37	=37	=37	=37	=37	=37	=37	=37
!LO:TX:t=P:problem=mixed beam	!	!	!	!	!	!	!	!	!	!	!	!	!
8d\L	.	16d/LL	.	16a\LL	.	4D/	-Can-	4a\	-Can-	4ff#\	-Can-	4d/	4a\
.	.	16a/	.	16ff#\	.	.	.	.	.	.	.	.	.
8D/	.	16d/	.	16a\	.	.	.	.	.	.	.	.	.
.	.	16a/JJ	.	16ff#\JJ	.	.	.	.	.	.	.	.	.
*	*	*	*	*rep	*	*	*	*	*	*	*	*	*
8F#/	.	16d/LL	.	16a\LL	.	4D/	-tem	4a\	-tem	4ff#\	-tem	4d/	4a\
.	.	16a/	.	16ff#\	.	.	.	.	.	.	.	.	.
8A/	.	16d/	.	16a\	.	.	.	.	.	.	.	.	.
.	.	16a/JJ	.	16ff#\JJ	.	.	.	.	.	.	.	.	.
*	*	*	*	*Xrep	*	*	*	*	*	*	*	*	*
*	*	*	*	*rep	*	*	*	*	*	*	*	*	*
8F#/	.	16d/LL	.	16a\LL	.	4r	.	4r	.	4r	.	4r	4r
.	.	16a/	.	16ff#\	.	.	.	.	.	.	.	.	.
8D/J	.	16d/	.	16a\	.	.	.	.	.	.	.	.	.
.	.	16a/JJ	.	16ff#\JJ	.	.	.	.	.	.	.	.	.
*	*	*	*	*Xrep	*	*	*	*	*	*	*	*	*
!	!	!	!	!	!	!LO:LB:g=original	!	!	!	!	!	!	!
=38	=38	=38	=38	=38	=38	=38	=38	=38	=38	=38	=38	=38	=38
8D\L	.	16d/LL	.	16a\LL	.	4r	.	4r	.	4r	.	4r	4r
.	.	16a/	.	16ff#\	.	.	.	.	.	.	.	.	.
8D\	.	16d/	.	16a\	.	.	.	.	.	.	.	.	.
.	.	16a/JJ	.	16ff#\JJ	.	.	.	.	.	.	.	.	.
*	*	*	*	*rep	*	*	*	*	*	*	*	*	*
8E\	.	16d/LL	.	16a\LL	.	4D/	Et	4a\	et	4ff#\	Et	4d/	4a\
.	.	16a/	.	16ff#\	.	.	.	.	.	.	.	.	.
8D\	.	16d/	.	16a\	.	.	.	.	.	.	.	.	.
.	.	16a/JJ	.	16ff#\JJ	.	.	.	.	.	.	.	.	.
*	*	*	*	*Xrep	*	*	*	*	*	*	*	*	*
*	*	*	*	*rep	*	*	*	*	*	*	*	*	*
8E\	.	16d/LL	.	16a\LL	.	4D/	ex	4a\	ex	4ff#\	ex	4d/	4a\
.	.	16a/	.	16ff#\	.	.	.	.	.	.	.	.	.
8F#\J	.	16d/	.	16a\	.	.	.	.	.	.	.	.	.
.	.	16a/JJ	.	16ff#\JJ	.	.	.	.	.	.	.	.	.
*	*	*	*	*Xrep	*	*	*	*	*	*	*	*	*
!LO:LB:g=original	!	!	!	!	!	!	!	!	!	!	!	!	!
=39	=39	=39	=39	=39	=39	=39	=39	=39	=39	=39	=39	=39	=39
8G\L	.	16d/LL	.	16b\LL	.	4G\	Pa-	4b\	Pa-	4gg\	Pa-	4g\	4b\
.	.	16b/	.	16gg\	.	.	.	.	.	.	.	.	.
8A\	.	16d/	.	16b\	.	.	.	.	.	.	.	.	.
.	.	16b/JJ	.	16gg\JJ	.	.	.	.	.	.	.	.	.
*	*	*	*	*rep	*	*	*	*	*	*	*	*	*
8B\	.	16d/LL	.	16b\LL	.	4G\	-tre	4b\	-tre	4gg\	-tre	4g\	4b\
.	.	16b/	.	16gg\	.	.	.	.	.	.	.	.	.
8A\	.	16d/	.	16b\	.	.	.	.	.	.	.	.	.
.	.	16b/JJ	.	16gg\JJ	.	.	.	.	.	.	.	.	.
*	*	*	*	*Xrep	*	*	*	*	*	*	*	*	*
*	*	*	*	*rep	*	*	*	*	*	*	*	*	*
8B\	.	16d/LL	.	16b\LL	.	8G\	fi-	8b\	Fi-	8gg\	Fi-	8g\L	8b\L
.	.	16b/	.	16gg\	.	.	.	.	.	.	.	.	.
8G\J	.	16d/	.	16b\	.	8G\	-li-	8b\	-li-	8gg\	-li-	8g\J	8b\J
.	.	16b/JJ	.	16gg\JJ	.	.	.	.	.	.	.	.	.
*	*	*	*	*Xrep	*	*	*	*	*	*	*	*	*
!	!	!	!	!	!	!	!	!	!	!	!	!	!LO:LB:g=original
=40	=40	=40	=40	=40	=40	=40	=40	=40	=40	=40	=40	=40	=40
8D\L	.	16d/LL	.	16a\LL	.	4D/	-o-	4a\	-o-	4ff#\	-o-	4d/	4a\
.	.	16a/	.	16ff#\	.	.	.	.	.	.	.	.	.
8E\	.	16d/	.	16a\	.	.	.	.	.	.	.	.	.
.	.	16a/JJ	.	16ff#\JJ	.	.	.	.	.	.	.	.	.
*	*	*	*	*rep	*	*	*	*	*	*	*	*	*
8F#\	.	16d/LL	.	16a\LL	.	4D/	-que	4a\	-que	4ff#\	-que	4d/	4a\
.	.	16a/	.	16ff#\	.	.	.	.	.	.	.	.	.
8E\	.	16d/	.	16a\	.	.	.	.	.	.	.	.	.
.	.	16a/JJ	.	16ff#\JJ	.	.	.	.	.	.	.	.	.
*	*	*	*	*Xrep	*	*	*	*	*	*	*	*	*
*	*	*	*	*rep	*	*	*	*	*	*	*	*	*
8F#\	.	16d/LL	.	16a\LL	.	4D/	pro-	4a\	pro-	4ff#\	pro-	4d/	4a\
.	.	16a/	.	16ff#\	.	.	.	.	.	.	.	.	.
8D\J	.	16d/	.	16a\	.	.	.	.	.	.	.	.	.
.	.	16a/JJ	.	16ff#\JJ	.	.	.	.	.	.	.	.	.
*	*	*	*	*Xrep	*	*	*	*	*	*	*	*	*
!	!	!LO:LB:g=original	!	!	!	!	!	!	!	!	!	!	!
=41	=41	=41	=41	=41	=41	=41	=41	=41	=41	=41	=41	=41	=41
8AA/L	.	16e/LL	.	16a\LL	.	2A\	-ce-	2.cc#X\	-ce-	2.ee\	-ce-	2.a\	2.a\
.	.	16cc#X/	.	16ee\	.	.	.	.	.	.	.	.	.
8BB/	.	16e/	.	16a\	.	.	.	.	.	.	.	.	.
.	.	16cc#/JJ	.	16ee\JJ	.	.	.	.	.	.	.	.	.
*	*	*	*	*rep	*	*	*	*	*	*	*	*	*
8C#X/	.	16e/LL	.	16a\LL	.	.	.	.	.	.	.	.	.
.	.	16cc#/	.	16ee\	.	.	.	.	.	.	.	.	.
8BB/	.	16e/	.	16a\	.	.	.	.	.	.	.	.	.
.	.	16cc#/JJ	.	16ee\JJ	.	.	.	.	.	.	.	.	.
*	*	*	*	*Xrep	*	*	*	*	*	*	*	*	*
*	*	*	*	*rep	*	*	*	*	*	*	*	*	*
8C#/	.	16e/LL	.	16a\LL	.	4AA/	.	.	.	.	.	.	.
.	.	16cc#/	.	16ee\	.	.	.	.	.	.	.	.	.
8AA/J	.	16e/	.	16a\	.	.	.	.	.	.	.	.	.
.	.	16cc#/JJ	.	16ee\JJ	.	.	.	.	.	.	.	.	.
*	*	*	*	*Xrep	*	*	*	*	*	*	*	*	*
!	!	!	!	!LO:LB:g=original	!	!	!	!	!	!	!	!	!
=42	=42	=42	=42	=42	=42	=42	=42	=42	=42	=42	=42	=42	=42
4D/	.	4dd\	.	4dd\	.	4D/	-dit	4dd\	-dit	4dd\	-dit	4d/	4a\
!	!	!	!	!	!	!LO:TX:a:i:t=Solo.	!	!	!	!	!	!	!
4r	.	4r	.	4r	.	4D\	qui	4r	.	4r	.	4r	4r
4D\	.	4r	.	4r	.	8F#\L	Cum	4r	.	4r	.	4r	4r
.	.	.	.	.	.	8D\J	.	.	.	.	.	.	.
=43	=43	=43	=43	=43	=43	=43	=43	=43	=43	=43	=43	=43	=43
!	!	!	!	!	!	!	!	!	!	!	!	!	!LO:TX:a:t=18.
4A\	.	0.r	.	0.r	.	4A\	Pa-	0.r	.	0.r	.	0.r	0.r
8B\L	.	.	.	.	.	8B\L	-tre	.	.	.	.	.	.
8A\	.	.	.	.	.	8A\	.	.	.	.	.	.	.
8B\	.	.	.	.	.	8B\J	.	.	.	.	.	.	.
8c#X\J	.	.	.	.	.	8c#X\	et	.	.	.	.	.	.
=44	=44	=44	=44	=44	=44	=44	=44	=44	=44	=44	=44	=44	=44
!LO:TX:t=P:problem=mixed beam	!	!	!	!	!	!	!	!	!	!	!	!	!
8.d\L	.	.	.	.	.	8.d\	Fi-	.	.	.	.	.	.
16D/Jk	.	.	.	.	.	16D/	-li-	.	.	.	.	.	.
8D\L	.	.	.	.	.	4D/	-o	.	.	.	.	.	.
16D\L	.	.	.	.	.	.	.	.	.	.	.	.	.
16E\JJ	.	.	.	.	.	.	.	.	.	.	.	.	.
8F#\L	.	.	.	.	.	4r	.	.	.	.	.	.	.
8D\J	.	.	.	.	.	.	.	.	.	.	.	.	.
!	!	!	!	!	!	!LO:LB:g=original	!	!	!	!	!	!	!
=45	=45	=45	=45	=45	=45	=45	=45	=45	=45	=45	=45	=45	=45
*2\right	*	*	*	*	*	*	*	*	*	*	*	*	*
*tremolo	*	*	*	*	*	*	*	*	*	*	*	*	*
!	!LO:DY:t=pia	!	!	!	!	!	!	!	!	!	!	!	!
8G\L	p	.	.	.	.	4.B\	Si-	.	.	.	.	.	.
8G\	.	.	.	.	.	.	.	.	.	.	.	.	.
8G\	.	.	.	.	.	.	.	.	.	.	.	.	.
8G\	.	.	.	.	.	8G\	-mul	.	.	.	.	.	.
8G\	.	.	.	.	.	8G\	a-	.	.	.	.	.	.
8G\J	.	.	.	.	.	8B\	-do-	.	.	.	.	.	.
=46	=46	=46	=46	=46	=46	=46	=46	=46	=46	=46	=46	=46	=46
8D\L	.	.	.	.	.	4A\	-ra-	.	.	.	.	.	.
8D\	.	.	.	.	.	.	.	.	.	.	.	.	.
8D\	.	.	.	.	.	4A\	-tur	.	.	.	.	.	.
8D\	.	.	.	.	.	.	.	.	.	.	.	.	.
8D\	.	.	.	.	.	8r	.	.	.	.	.	.	.
8D\J	.	.	.	.	.	8A\	et	.	.	.	.	.	.
=47	=47	=47	=47	=47	=47	=47	=47	=47	=47	=47	=47	=47	=47
8D\L	.	0.r	.	0.r	.	4.A\	Con-	0.r	.	0.r	.	0.r	0.r
8D\	.	.	.	.	.	.	.	.	.	.	.	.	.
8D\	.	.	.	.	.	.	.	.	.	.	.	.	.
8D\	.	.	.	.	.	8F#\	-glo-	.	.	.	.	.	.
8D\	.	.	.	.	.	8F#\	-ri-	.	.	.	.	.	.
8D\J	.	.	.	.	.	8A\	-fi-	.	.	.	.	.	.
=48	=48	=48	=48	=48	=48	=48	=48	=48	=48	=48	=48	=48	=48
8AA/L	.	.	.	.	.	4G\	-Ca-	.	.	.	.	.	.
8AA/	.	.	.	.	.	.	.	.	.	.	.	.	.
8AA/	.	.	.	.	.	4G\	-tur	.	.	.	.	.	.
8AA/	.	.	.	.	.	.	.	.	.	.	.	.	.
8AA/	.	.	.	.	.	8r	.	.	.	.	.	.	.
8AA/J	.	.	.	.	.	8G\	Qui	.	.	.	.	.	.
*Xtremolo	*	*	*	*	*	*	*	*	*	*	*	*	*
=49	=49	=49	=49	=49	=49	=49	=49	=49	=49	=49	=49	=49	=49
8D\L	.	.	.	.	.	4F#\	lo-	.	.	.	.	.	.
8D\	.	.	.	.	.	.	.	.	.	.	.	.	.
8E\	.	.	.	.	.	4G\	.	.	.	.	.	.	.
8E\	.	.	.	.	.	.	.	.	.	.	.	.	.
8F#\	.	.	.	.	.	4A\	.	.	.	.	.	.	.
8F#\J	.	.	.	.	.	.	.	.	.	.	.	.	.
=50	=50	=50	=50	=50	=50	=50	=50	=50	=50	=50	=50	=50	=50
8G\L	.	.	.	.	.	4B\	-Cu-	.	.	.	.	.	.
8G\	.	.	.	.	.	.	.	.	.	.	.	.	.
8E\	.	.	.	.	.	4c#X\	-tus	.	.	.	.	.	.
8E\	.	.	.	.	.	.	.	.	.	.	.	.	.
8F#\	.	.	.	.	.	4d\	eſt	.	.	.	.	.	.
8F#\J	.	.	.	.	.	.	.	.	.	.	.	.	.
=51	=51	=51	=51	=51	=51	=51	=51	=51	=51	=51	=51	=51	=51
*	*	*custos:cc	*	*	*	*	*	*	*	*custos:g	*	*	*
!LO:TX:t=P:problem=mixed beam	!	!	!	!	!	!	!	!	!	!	!	!	!
8G\L	.	1.r	.	1.r	.	8G\	Per	0.r	.	1.r	.	0.r	0.r
8G\	.	.	.	.	.	8E\	Pro-	.	.	.	.	.	.
8A\	.	.	.	.	.	4A\	-phe-	.	.	.	.	.	.
8A\	.	.	.	.	.	.	.	.	.	.	.	.	.
8AA/	.	.	.	.	.	4AA/	.	.	.	.	.	.	.
8AA/J	.	.	.	.	.	.	.	.	.	.	.	.	.
!LO:LB:g=original	!	!	!	!	!	!LO:LB:g=original	!	!	!	!	!	!	!
=52	=52	=52	=52	=52	=52	=52	=52	=52	=52	=52	=52	=52	=52
4D\	.	.	.	.	.	4D/	-tas	.	.	.	.	.	.
8d\L	.	.	.	.	.	4r	.	.	.	.	.	.	.
8cn\	.	.	.	.	.	.	.	.	.	.	.	.	.
8B\	.	.	.	.	.	4r	.	.	.	.	.	.	.
8A\J	.	.	.	.	.	.	.	.	.	.	.	.	.
!	!	!LO:PB:g=original	!	!	!	!	!	!	!	!LO:PB:g=original	!	!	!
=53	=53	=53	=53	=53	=53	=53	=53	=53	=53	=53	=53	=53	=53
*	*	*tremolo	*	*tremolo	*	*	*	*	*	*	*	*	*
!	!	!	!LO:DY:a:t=pia	!	!LO:DY:t=pia	!	!	!	!	!LO:TX:a:i:t=Solo.	!	!	!
4G\	.	8G/L	p	8g/L	p	0.r	.	.	.	2g\	Et	.	.
.	.	8G/	.	8g/	.	.	.	.	.	.	.	.	.
4r	.	8G/	.	8g/	.	.	.	.	.	.	.	.	.
.	.	8G/	.	8g/	.	.	.	.	.	.	.	.	.
4r	.	8G/	.	8g/	.	.	.	.	.	4b\	.	.	.
.	.	8G/J	.	8g/J	.	.	.	.	.	.	.	.	.
=54	=54	=54	=54	=54	=54	=54	=54	=54	=54	=54	=54	=54	=54
!LO:TX:a:t=3	!	!	!	!	!	!	!	!	!	!	!LO:MO:mod=u-	!	!
1.r	.	8d/L	.	8f#/L	.	.	.	.	.	4a\	un-	.	.
.	.	8d/	.	8f#/	.	.	.	.	.	.	.	.	.
.	.	8d/	.	8f#/	.	.	.	.	.	4a\	-nam	.	.
.	.	8d/	.	8f#/	.	.	.	.	.	.	.	.	.
.	.	8d/	.	8f#/	.	.	.	.	.	4r	.	.	.
.	.	8d/J	.	8f#/J	.	.	.	.	.	.	.	.	.
=55	=55	=55	=55	=55	=55	=55	=55	=55	=55	=55	=55	=55	=55
.	.	8d/L	.	8f#/L	.	.	.	1.r	.	4a\	San-	0.r	0.r
.	.	8d/	.	8f#/	.	.	.	.	.	.	.	.	.
.	.	8d/	.	8f#/	.	.	.	.	.	4a\	-ctam	.	.
.	.	8d/	.	8f#/J	.	.	.	.	.	.	.	.	.
*	*	*	*	*Xtremolo	*	*	*	*	*	*	*	*	*
.	.	8d/	.	8a/L	.	.	.	.	.	4cc\	Cat-	.	.
.	.	8d/J	.	8a/J	.	.	.	.	.	.	.	.	.
*	*	*Xtremolo	*	*	*	*	*	*	*	*	*	*	*
=56	=56	=56	=56	=56	=56	=56	=56	=56	=56	=56	=56	=56	=56
*	*	*	*	*tremolo	*	*	*	*	*	*	*	*	*
!	!	!	!	!	!	!	!	!	!	!	!LO:MO:mod=-ho-	!	!
2.r	.	8g/L	.	8g/L	.	.	.	.	.	8.b\	-cho-	.	.
.	.	8d/	.	8g/	.	.	.	.	.	.	.	.	.
.	.	.	.	.	.	.	.	.	.	16b\	-li-	.	.
.	.	8B/	.	8g/	.	.	.	.	.	4b\	-cam	.	.
.	.	8d/	.	8g/	.	.	.	.	.	.	.	.	.
.	.	8B/	.	8g/	.	.	.	.	.	4r	.	.	.
.	.	8G/J	.	8g/J	.	.	.	.	.	.	.	.	.
*	*	*	*	*Xtremolo	*	*	*	*	*	*	*	*	*
!	!	!	!	!	!	!	!	!LO:PB:g=original	!	!	!	!	!
=57	=57	=57	=57	=57	=57	=57	=57	=57	=57	=57	=57	=57	=57
!	!	!	!	!	!	!	!	!LO:TX:a:i:t=Solo	!	!	!	!	!
8GG/	.	8r	.	8r	.	0.r	.	4b\	Et	4dd\	Et	.	.
8r	.	8b\	.	8dd\	.	.	.	.	.	.	.	.	.
8GG/	.	8r	.	8r	.	.	.	4b\	A-	4dd\	a-	.	.
8r	.	8b\	.	8dd\	.	.	.	.	.	.	.	.	.
8GG/	.	8r	.	8r	.	.	.	4ccn\	-poſ-	4ee\	-pos-	.	.
8r	.	8cc\	.	8ee\	.	.	.	.	.	.	.	.	.
=58	=58	=58	=58	=58	=58	=58	=58	=58	=58	=58	=58	=58	=58
8D/	.	8r	.	8r	.	.	.	4.a\	-to-	4.cc\	-to-	.	.
8r	.	8a/	.	8cc\	.	.	.	.	.	.	.	.	.
8D/	.	8r	.	8r	.	.	.	.	.	.	.	.	.
8r	.	8a/	.	8cc\	.	.	.	8a\	-li-	8cc\	-li-	.	.
8D/	.	8r	.	8r	.	.	.	4a\	-cam	4cc\	-cam	.	.
8r	.	8a/	.	8cc\	.	.	.	.	.	.	.	.	.
=59	=59	=59	=59	=59	=59	=59	=59	=59	=59	=59	=59	=59	=59
*	*	*	*	*	*	*	*	*	*ij	*	*	*	*
8D/	.	8r	.	8r	.	.	.	4a\	Et	4cc\	Et	1.r	1.r
8r	.	8a/	.	8cc\	.	.	.	.	.	.	.	.	.
8D/	.	8r	.	8r	.	.	.	4a\	A-	4cc\	A-	.	.
8r	.	8a/	.	8cc\	.	.	.	.	.	.	.	.	.
8D/	.	8r	.	8r	.	.	.	4b\	-poſ-	4dd\	-pos-	.	.
8r	.	8b/	.	8dd\	.	.	.	.	.	.	.	.	.
!	!	!	!	!LO:LB:g=original	!	!	!	!	!	!	!	!	!
=60	=60	=60	=60	=60	=60	=60	=60	=60	=60	=60	=60	=60	=60
8G\	.	8r	.	8r	.	.	.	4.g/	-to-	4.b\	-to-	.	.
8r	.	8g/	.	8b/	.	.	.	.	.	.	.	.	.
8GG/	.	8r	.	8r	.	.	.	.	.	.	.	.	.
8r	.	8g/	.	8b\	.	.	.	8g/	-li-	8b\	-li-	.	.
8GG/	.	8r	.	8r	.	.	.	4g/	-cam	4b\	-cam	.	.
*	*	*	*	*	*	*	*	*	*Xij	*	*	*	*
8r	.	8g/	.	8b\	.	.	.	.	.	.	.	.	.
!	!	!LO:LB:g=original	!	!	!	!	!	!	!	!LO:LB:g=original	!	!	!
=61	=61	=61	=61	=61	=61	=61	=61	=61	=61	=61	=61	=61	=61
!LO:TX:t=P:problem=takty nr 61-64 oznaczone znakiem repetycji	!	!	!	!LO:TX:t=P:problem=takty nr 61-64 oznaczone znakiem repetycji	!	!	!	!	!	!	!	!	!
8GG/yy	.	8r	.	8ryy	.	0.r	.	4b\	Et	4dd\	Et	2.r	2.r
8ryy	.	8b\	.	8dd\yy	.	.	.	.	.	.	.	.	.
8GG/yy	.	8r	.	8ryy	.	.	.	4b\	a-	4dd\	a-	.	.
8ryy	.	8b\	.	8dd\yy	.	.	.	.	.	.	.	.	.
8GG/yy	.	8r	.	8ryy	.	.	.	4cc\	-poſ-	4ee\	-pos-	.	.
8ryy	.	8cc\	.	8ee\yy	.	.	.	.	.	.	.	.	.
=62	=62	=62	=62	=62	=62	=62	=62	=62	=62	=62	=62	=62	=62
!	!	!	!	!	!	!	!	!	!	!	!	!LO:TX:t=P:problem=brak taktów nr 62-65	!LO:TX:t=P:problem=brak taktów nr 62-65
8D/yy	.	8r	.	8ryy	.	.	.	4.a\	-to-	4.cc\	-to-	2.ryy	2.ryy
8ryy	.	8a/	.	8cc\yy	.	.	.	.	.	.	.	.	.
8D/yy	.	8r	.	8ryy	.	.	.	.	.	.	.	.	.
8ryy	.	8a/	.	8cc\yy	.	.	.	8a\	-li-	8cc\	-li-	.	.
8D/yy	.	8r	.	8ryy	.	.	.	4a\	-cam	4cc\	-cam	.	.
8ryy	.	8a/	.	8cc\yy	.	.	.	.	.	.	.	.	.
=63	=63	=63	=63	=63	=63	=63	=63	=63	=63	=63	=63	=63	=63
*	*	*	*	*	*	*	*	*	*ij	*	*	*	*
8D/yy	.	8r	.	8ryy	.	.	.	4a\	Et	4cc\	Et	2.ryy	2.ryy
8ryy	.	8a/	.	8cc\yy	.	.	.	.	.	.	.	.	.
8D/yy	.	8r	.	8ryy	.	.	.	4a\	a-	4cc\	A-	.	.
8ryy	.	8a/	.	8cc\yy	.	.	.	.	.	.	.	.	.
8D/yy	.	8r	.	8ryy	.	.	.	4b\	-poſ-	4dd\	-pos-	.	.
8ryy	.	8b\	.	8dd\yy	.	.	.	.	.	.	.	.	.
=64	=64	=64	=64	=64	=64	=64	=64	=64	=64	=64	=64	=64	=64
8G\yy	.	8r	.	8ryy	.	.	.	4.g\	-to-	4.b\	-to-	2.ryy	2.ryy
8ryy	.	8g/	.	8b/yy	.	.	.	.	.	.	.	.	.
8GG/yy	.	8r	.	8ryy	.	.	.	.	.	.	.	.	.
8ryy	.	8g/	.	8b\yy	.	.	.	8g\	-li-	8b\	-li-	.	.
8GG/yy	.	8r	.	8ryy	.	.	.	4g\	-cam	4b\	-cam	.	.
*	*	*	*	*	*	*	*	*	*Xij	*	*	*	*
8ryy	.	8g/	.	8b\yy	.	.	.	.	.	.	.	.	.
=65	=65	=65	=65	=65	=65	=65	=65	=65	=65	=65	=65	=65	=65
*	*	*	*	*tuplet	*	*	*	*Xtuplet	*	*Xtuplet	*	*	*
!LO:TX:t=P:problem=mixed beam	!	!	!	!LO:TUP:a:problem=klamra łukowa	!	!	!	!	!LO:MO:mod=Ec-	!	!LO:MO:mod=Ec-	!	!
8C/L	.	12cc/L	.	12ee\L	.	2.r	.	12cc\L	E-	12ee\L	E-	2.ryy	2.ryy
.	.	12b/	.	12dd\	.	.	.	12b\	.	12dd\	.	.	.
8c\	.	.	.	.	.	.	.	.	.	.	.	.	.
.	.	12a/J	.	12cc\J	.	.	.	12a\J	.	12cc\J	.	.	.
8d\	.	4g/	.	4b/	.	.	.	4g/	-Cle-	4b\	-Cle-	.	.
8d\	.	.	.	.	.	.	.	.	.	.	.	.	.
8D/	.	4f#t/	.	4aT/	.	.	.	4f#/	-si-	4aT\	-si-	.	.
8D/J	.	.	.	.	.	.	.	.	.	.	.	.	.
!	!	!	!	!	!	!	!	!LO:LB:g=original	!	!	!	!	!
=66	=66	=66	=66	=66	=66	=66	=66	=66	=66	=66	=66	=66	=66
*tremolo	*	*	*	*	*	*	*	*	*	*	*	*	*
8G\L	f	16g/LL	f	16g/LL	.	4r	.	4g\	-am	4g\	-am	4r	4r
.	.	16G/	.	16G/	.	.	.	.	.	.	.	.	.
8G\	.	16G/	.	16G/	.	.	.	.	.	.	.	.	.
.	.	16G/JJ	.	16G/JJ	.	.	.	.	.	.	.	.	.
*	*	*tremolo	*	*tremolo	*	*	*	*	*	*	*	*	*
8G\	.	16G/LL	.	16B/LL	.	4G\	Con-	4b\	Con-	4dd\	Con-	4g\	4b\
.	.	16G/	.	16B/	.	.	.	.	.	.	.	.	.
8G\	.	16G/	.	16B/	.	.	.	.	.	.	.	.	.
.	.	16G/JJ	.	16B/JJ	.	.	.	.	.	.	.	.	.
8G\	.	16B/LL	.	16d/LL	.	4G\	-fi-	4b\	-fi-	4dd\	-fi-	4g\	4b\
.	.	16B/	.	16d/	.	.	.	.	.	.	.	.	.
8G\J	.	16B/	.	16d/	.	.	.	.	.	.	.	.	.
.	.	16B/JJ	.	16d/JJ	.	.	.	.	.	.	.	.	.
=67	=67	=67	=67	=67	=67	=67	=67	=67	=67	=67	=67	=67	=67
8G\L	.	16d/LL	.	16g/LL	.	2G\	-te-	2b\	-te-	2dd\	-te-	2g\	2b\
.	.	16d/	.	16g/	.	.	.	.	.	.	.	.	.
8G\	.	16d/	.	16g/	.	.	.	.	.	.	.	.	.
.	.	16d/JJ	.	16g/JJ	.	.	.	.	.	.	.	.	.
8G\	.	16g/LL	.	16b/LL	.	.	.	.	.	.	.	.	.
.	.	16g/	.	16b/	.	.	.	.	.	.	.	.	.
8G\	.	16g/	.	16b/	.	.	.	.	.	.	.	.	.
.	.	16g/JJ	.	16b/JJ	.	.	.	.	.	.	.	.	.
8G\	.	16b/LL	.	16dd\LL	.	4G\	-or	4b\	-or	4dd\	-or	4g\	4b\
.	.	16b/	.	16dd\	.	.	.	.	.	.	.	.	.
8G\J	.	16b/	.	16dd\	.	.	.	.	.	.	.	.	.
.	.	16b/JJ	.	16dd\JJ	.	.	.	.	.	.	.	.	.
!	!	!LO:LB:g=original	!	!	!	!	!	!	!	!	!	!LO:LB:g=original	!
=68	=68	=68	=68	=68	=68	=68	=68	=68	=68	=68	=68	=68	=68
!	!	!	!	!	!	!	!LO:MO:mod=u-	!	!LO:MO:mod=U-	!	!LO:MO:mod=u-	!	!
8C/L	.	16c/LL	.	16c/LL	.	4c\	un-	4cc\	Un-	4ee\	un-	4g\	4g\
.	.	16c/	.	16c/	.	.	.	.	.	.	.	.	.
8C/	.	16c/	.	16c/	.	.	.	.	.	.	.	.	.
.	.	16c/	.	16c/JJ	.	.	.	.	.	.	.	.	.
8C/	.	16c/	.	16e/LL	.	4c\	-num	4cc\	-nu(m)	4ee\	-num	4g\	4g\
.	.	16c/	.	16e/	.	.	.	.	.	.	.	.	.
8C/	.	16c/	.	16e/	.	.	.	.	.	.	.	.	.
.	.	16c/JJ	.	16e/JJ	.	.	.	.	.	.	.	.	.
8C/	.	16e/LL	.	16g/LL	.	4c\	Bap-	4cc\	bap-	4ee\	Bap-	4g\	4g\
.	.	16e/	.	16g/	.	.	.	.	.	.	.	.	.
8C/J	.	16e/	.	16g/	.	.	.	.	.	.	.	.	.
.	.	16e/JJ	.	16g/JJ	.	.	.	.	.	.	.	.	.
!	!	!	!	!	!	!	!	!	!	!	!LO:LB:g=original	!	!
=69	=69	=69	=69	=69	=69	=69	=69	=69	=69	=69	=69	=69	=69
8C/L	.	16g/LL	.	16cc\LL	.	2c\	-tiſ-	2cc\	-tiſ-	2ee\	-tis-	2g\	2g\
.	.	16g/	.	16cc\	.	.	.	.	.	.	.	.	.
8C/	.	16g/	.	16cc\	.	.	.	.	.	.	.	.	.
.	.	16g/JJ	.	16cc\JJ	.	.	.	.	.	.	.	.	.
8C/	.	16cc\LL	.	16ee\LL	.	.	.	.	.	.	.	.	.
.	.	16cc\	.	16ee\	.	.	.	.	.	.	.	.	.
8C/	.	16cc\	.	16ee\	.	.	.	.	.	.	.	.	.
.	.	16cc\JJ	.	16ee\JJ	.	.	.	.	.	.	.	.	.
!	!	!	!	!	!	!	!LO:MO:mod=-ma	!	!LO:MO:mod=-ma	!	!LO:MO:mod=-ma	!	!
8C/	.	16ee\LL	.	16gg\LL	.	4c\	-mam	4cc\	-ma(m)	4ee\	-mam	4g\	4g\
.	.	16ee\	.	16gg\	.	.	.	.	.	.	.	.	.
8C/J	.	16ee\	.	16gg\	.	.	.	.	.	.	.	.	.
.	.	16ee\JJ	.	16gg\JJ	.	.	.	.	.	.	.	.	.
=70	=70	=70	=70	=70	=70	=70	=70	=70	=70	=70	=70	=70	=70
8G\L	.	16G/LL	.	16G/LL	.	8G\	in	8b\	in	8dd\	In	8g\L	8b\L
.	.	16G/	.	16G/	.	.	.	.	.	.	.	.	.
8G\	.	16G/	.	16G/	.	8G\	re-	8b\	re-	8dd\	re-	8g\J	8b\J
.	.	16G/	.	16G/JJ	.	.	.	.	.	.	.	.	.
!	!	!	!	!	!	!	!	!	!	!	!LO:MO:mod=-mis-	!	!
8G\	.	16G/	.	16B/LL	.	4G\	-miſ-	4b\	-miſ-	4dd\	-mi-	4g\	4b\
.	.	16G/	.	16B/	.	.	.	.	.	.	.	.	.
8G\	.	16G/	.	16B/	.	.	.	.	.	.	.	.	.
.	.	16G/JJ	.	16B/JJ	.	.	.	.	.	.	.	.	.
8G\	.	16B/LL	.	16d/LL	.	4G\	-si-	4b\	-si-	4dd\	-ſi-	4g\	4b\
.	.	16B/	.	16d/	.	.	.	.	.	.	.	.	.
8G\J	.	16B/	.	16d/	.	.	.	.	.	.	.	.	.
.	.	16B/JJ	.	16d/JJ	.	.	.	.	.	.	.	.	.
!	!	!	!	!LO:LB:g=original	!	!	!	!	!	!	!	!	!
=71	=71	=71	=71	=71	=71	=71	=71	=71	=71	=71	=71	=71	=71
8G\L	.	16d/LL	.	16g/LL	.	2G\	-o-	2b\	-o-	2dd\	-o-	2g\	2b\
.	.	16d/	.	16g/	.	.	.	.	.	.	.	.	.
8G\	.	16d/	.	16g/	.	.	.	.	.	.	.	.	.
.	.	16d/JJ	.	16g/JJ	.	.	.	.	.	.	.	.	.
8G\	.	16g/LL	.	16b\LL	.	.	.	.	.	.	.	.	.
.	.	16g/	.	16b\	.	.	.	.	.	.	.	.	.
8G\	.	16g/	.	16b\	.	.	.	.	.	.	.	.	.
.	.	16g/JJ	.	16b\JJ	.	.	.	.	.	.	.	.	.
8G\	.	16b/LL	.	16dd\LL	.	4G\	-nem	4b\	-nem	4dd\	-nem	4g\	4b\
.	.	16b/	.	16dd\	.	.	.	.	.	.	.	.	.
8G\J	.	16b/	.	16dd\	.	.	.	.	.	.	.	.	.
.	.	16b/JJ	.	16dd\JJ	.	.	.	.	.	.	.	.	.
*Xtremolo	*	*Xtremolo	*	*Xtremolo	*	*	*	*	*	*	*	*	*
!LO:LB:g=original	!	!	!	!	!	!	!	!	!	!	!	!	!
=72	=72	=72	=72	=72	=72	=72	=72	=72	=72	=72	=72	=72	=72
!LO:TX:t=P:problem=mixed beam	!	!	!	!LO:TX:t=P:problem=mixed beam	!	!	!	!	!	!	!	!	!
8c\L	.	8cc\L	.	8ee\L	.	8c\	Pec-	8cc\	Pec-	8ee\	Pec-	8cc\L	8ee\L
8c\	.	8a\J	.	8cc\	.	8c\	-ca-	8a\	-ca-	8cc\	-ca-	8a\J	8cc\J
8d\	.	8d/L	.	8b\	.	4d\	-to-	4g/	-to-	4b\	-to-	4g\	4b\
8d\	.	8b/	.	8gg\	.	.	.	.	.	.	.	.	.
8D/	.	8d/	.	8d/	.	4D\	.	4f#/	.	4aT\	.	4d/	4a\
8D/J	.	8a/J	.	8ff#\J	.	.	.	.	.	.	.	.	.
!	!	!	!	!	!	!LO:LB:g=original	!	!	!	!	!	!	!
=73	=73	=73	=73	=73	=73	=73	=73	=73	=73	=73	=73	=73	=73
*tremolo	*	*	*	*	*	*	*	*	*	*	*	*	*
!	!LO:DY:t=for	!	!	!	!	!	!	!	!	!	!	!	!
8G\L	f	16b\LL	f	16gg\LL	f	4G\	-rum	4g\	-rum	4g\	-rum	4g\	4b\
.	.	16b\	.	16dd\	.	.	.	.	.	.	.	.	.
8G\	.	16b\	.	16dd\	.	.	.	.	.	.	.	.	.
.	.	16b\JJ	.	16dd\JJ	.	.	.	.	.	.	.	.	.
!	!LO:DY:t=pia	!	!	!	!LO:DY:t=pia	!	!	!	!	!	!	!	!
8G\	p	(16g\LL	p	(16b\LL	p	4G\	Et	4b\	Et	4dd\	Et	4g\	4b\
.	.	16b\	.	16dd\	.	.	.	.	.	.	.	.	.
8G\	.	16g\	.	16b\	.	.	.	.	.	.	.	.	.
.	.	16b\JJ	.	16dd\JJ	.	.	.	.	.	.	.	.	.
8G\	.	16g\LL	.	16b\LL	.	4G\	ex-	4b\	ex-	4dd\	ex-	4g\	4b\
.	.	16b\	.	16dd\	.	.	.	.	.	.	.	.	.
8G\J	.	16g\	.	16b\	.	.	.	.	.	.	.	.	.
.	.	16b\JJ)	.	16dd\JJ)	.	.	.	.	.	.	.	.	.
=74	=74	=74	=74	=74	=74	=74	=74	=74	=74	=74	=74	=74	=74
!	!LO:DY:t=for	!	!	!	!	!	!	!	!	!	!	!	!
8c\L	f	16ee\LL	f	16gg\LL	f	2c\	-Pec-	2cc\	-Pec-	2ee\	-Pec-	2g\	2g\
.	.	16cc\	.	16ee\	.	.	.	.	.	.	.	.	.
8c\	.	16cc\	.	16ee\	.	.	.	.	.	.	.	.	.
.	.	16cc\JJ	.	16ee\JJ	.	.	.	.	.	.	.	.	.
!	!LO:DY:t=p.	!	!	!	!	!	!	!	!	!	!	!	!
8c\	p	(16e/LL	p	(16cc\LL	p	.	.	.	.	.	.	.	.
.	.	16cc/	.	16ee\	.	.	.	.	.	.	.	.	.
8c\	.	16e/	.	16cc\	.	.	.	.	.	.	.	.	.
.	.	16cc/JJ	.	16ee\JJ	.	.	.	.	.	.	.	.	.
8c\	.	16e/LL	.	16cc\LL	.	4c\	-to	4cc\	-to	4ee\	-to	4g\	4g\
.	.	16cc/	.	16ee\	.	.	.	.	.	.	.	.	.
8c\J	.	16e/	.	16cc\	.	.	.	.	.	.	.	.	.
.	.	16cc/JJ)	.	16ee\JJ)	.	.	.	.	.	.	.	.	.
!	!	!	!	!	!	!	!	!LO:LB:g=original	!	!	!	!	!LO:LB:g=original
=75	=75	=75	=75	=75	=75	=75	=75	=75	=75	=75	=75	=75	=75
!	!LO:DY:t=for	!	!	!	!	!	!	!	!	!	!	!	!
8G\L	f	16b/LL	f	16gg\LL	f	8G\	Re-	8b\	Re-	8dd\	Re-	8g\L	8b\L
.	.	16b/	.	16dd\	.	.	.	.	.	.	.	.	.
8G\	.	16b/	.	16dd\	.	8G\	-ſur-	8b\	-ſu-	8dd\	-ſur-	8g\J	8b\J
.	.	16b/JJ	.	16dd\JJ	.	.	.	.	.	.	.	.	.
!	!LO:DY:t=p&colon;	!LO:LB:g=original	!LO:DY:t=pia	!	!LO:DY:t=pia	!	!	!	!	!	!	!	!
8G\	p	(16d/LL	p	(16b\LL	p	4G\	-rec-	4b\	-rec-	4dd\	-rec-	4g\	4b\
.	.	16b/	.	16dd\	.	.	.	.	.	.	.	.	.
8G\	.	16d/	.	16b\	.	.	.	.	.	.	.	.	.
.	.	16b/JJ	.	16dd\JJ	.	.	.	.	.	.	.	.	.
8G\	.	16d/LL	.	16b\LL	.	4G\	-ti-	4b\	-ti-	4dd\	-ti-	4g\	4b\
.	.	16b/	.	16dd\	.	.	.	.	.	.	.	.	.
8G\J	.	16d/	.	16b\	.	.	.	.	.	.	.	.	.
.	.	16b/JJ)	.	16dd\JJ)	.	.	.	.	.	.	.	.	.
=76	=76	=76	=76	=76	=76	=76	=76	=76	=76	=76	=76	=76	=76
!	!LO:DY:t=for	!	!	!	!	!	!	!	!	!	!	!	!
8D\L	f	16a/LL	f	16cc\LL	f	2.D\	-o-	2.a\	-O-	2.cc\	-O-	2.d/	2.a\
.	.	16f#/	.	16a\	.	.	.	.	.	.	.	.	.
8D\	.	16f#/	.	16a\	.	.	.	.	.	.	.	.	.
.	.	16f#/JJ	.	16a\JJ	.	.	.	.	.	.	.	.	.
!	!LO:DY:t=pi	!	!	!LO:LB:g=original	!	!	!	!	!	!	!	!	!
8D\	p	(16f#/LL	p	16a\LL	p	.	.	.	.	.	.	.	.
.	.	16a/	.	16cc\	.	.	.	.	.	.	.	.	.
8D\	.	16f#/	.	16a\	.	.	.	.	.	.	.	.	.
.	.	16a/JJ	.	16cc\JJ	.	.	.	.	.	.	.	.	.
8D\	.	16f#/LL	.	16a\LL	.	.	.	.	.	.	.	.	.
.	.	16a/	.	16cc\	.	.	.	.	.	.	.	.	.
8D\J	.	16f#/	.	16a\	.	.	.	.	.	.	.	.	.
.	.	16a/JJ)	.	16cc\JJ	.	.	.	.	.	.	.	.	.
!	!	!	!	!	!	!	!	!	!	!LO:LB:g=original	!	!	!
=77	=77	=77	=77	=77	=77	=77	=77	=77	=77	=77	=77	=77	=77
!	!LO:DY:t=for	!	!	!	!	!	!	!	!	!	!	!	!
8G\L	f	16g/LL	f	16b\LL	f	4G\	-nem	4g\	-nem	4b\	-nem	4g\	4b\
.	.	16b/	.	16dd\	.	.	.	.	.	.	.	.	.
8G\	.	16b/	.	16dd\	.	.	.	.	.	.	.	.	.
.	.	16b/JJ	.	16dd\JJ	.	.	.	.	.	.	.	.	.
!	!LO:DY:t=pi	!	!LO:DY:t=pia	!	!	!	!	!	!	!	!	!	!
8G\	p	(16g/LL	p	(16b\LL	p	4G\	mor-	4b\	Mor-	4dd\	mor-	4g\	4b\
.	.	16b/	.	16dd\	.	.	.	.	.	.	.	.	.
8G\	.	16g/	.	16b\	.	.	.	.	.	.	.	.	.
.	.	16b/JJ	.	16dd\JJ	.	.	.	.	.	.	.	.	.
8G\	.	16g/LL	.	16b\LL	.	4G\	-tu-	4b\	-tu-	4dd\	-tu-	4g\	4b\
.	.	16b/	.	16dd\	.	.	.	.	.	.	.	.	.
8G\J	.	16g/	.	16b\	.	.	.	.	.	.	.	.	.
.	.	16b/JJ)	.	16dd\JJ)	.	.	.	.	.	.	.	.	.
=78	=78	=78	=78	=78	=78	=78	=78	=78	=78	=78	=78	=78	=78
!	!LO:DY:t=for	!	!	!	!	!	!	!	!	!	!	!	!
8c\L	f	16ee\LL	f	16gg\LL	f	2c\	-o-	2cc\	-O-	2ee\	-O-	2g\	2g\
.	.	16cc\	.	16ee\	.	.	.	.	.	.	.	.	.
8c\	.	16cc\	.	16ee\	.	.	.	.	.	.	.	.	.
.	.	16cc\JJ	.	16ee\JJ	.	.	.	.	.	.	.	.	.
!	!LO:DY:t=p&colon;	!	!	!	!LO:DY:t=pia	!	!	!	!	!	!	!	!
8c\	p	(16e/LL	p	(16cc\LL	p	.	.	.	.	.	.	.	.
.	.	16cc/	.	16ee\	.	.	.	.	.	.	.	.	.
8c\	.	16e/	.	16cc\	.	.	.	.	.	.	.	.	.
.	.	16cc/JJ	.	16ee\JJ	.	.	.	.	.	.	.	.	.
8c\	.	16e/LL	.	16cc\LL	.	4c\	-rum	4cc\	-rum	4ee\	-rum	4g\	4g\
.	.	16cc/	.	16ee\	.	.	.	.	.	.	.	.	.
8c\J	.	16e/	.	16cc\	.	.	.	.	.	.	.	.	.
.	.	16cc/JJ)	.	16ee\JJ)	.	.	.	.	.	.	.	.	.
=79	=79	=79	=79	=79	=79	=79	=79	=79	=79	=79	=79	=79	=79
!	!LO:DY:t=for	!	!	!	!	!	!	!	!	!	!	!	!
8G\L	f	16b/LL	f	16gg\LL	f	2G\	Mor-	2b\	Mor-	2dd\	Mor-	2g\	2b\
.	.	16b/	.	16dd\	.	.	.	.	.	.	.	.	.
8G\	.	16b/	.	16dd\	.	.	.	.	.	.	.	.	.
.	.	16b/JJ	.	16dd\JJ	.	.	.	.	.	.	.	.	.
!	!LO:DY:t=p&colon;	!	!LO:DY:t=pia	!	!	!	!	!	!	!	!	!	!
8G\	p	(16d/LL	p	(16b\LL	p	.	.	.	.	.	.	.	.
.	.	16b/	.	16dd\	.	.	.	.	.	.	.	.	.
8G\	.	16d/	.	16b\	.	.	.	.	.	.	.	.	.
.	.	16b/JJ	.	16dd\JJ	.	.	.	.	.	.	.	.	.
8G\	.	16d/LL	.	16b\LL	.	4G\	-tu-	4b\	-tu-	4dd\	-tu-	4g\	4b\
.	.	16b/	.	16dd\	.	.	.	.	.	.	.	.	.
8G\J	.	16d/	.	16b\	.	.	.	.	.	.	.	.	.
.	.	16b/JJ)	.	16dd\JJ)	.	.	.	.	.	.	.	.	.
=80	=80	=80	=80	=80	=80	=80	=80	=80	=80	=80	=80	=80	=80
!	!LO:DY:t=for	!	!	!	!	!	!	!	!	!	!	!	!
8D\L	f	16a/LL	f	16cc\LL	f	2.D\	-o-	2.a\	-O-	2.cc\	-O-	2.d/	2.a\
.	.	16f#/	.	16a\	.	.	.	.	.	.	.	.	.
8D\	.	16f#/	.	16a\	.	.	.	.	.	.	.	.	.
.	.	16f#/JJ	.	16a\JJ	.	.	.	.	.	.	.	.	.
!	!LO:DY:t=p&colon;	!	!LO:DY:t=pia	!	!LO:DY:t=pia	!	!	!	!	!	!	!	!
8D\	p	(16f#/LL	p	(16a\LL	p	.	.	.	.	.	.	.	.
.	.	16a/	.	16cc\	.	.	.	.	.	.	.	.	.
8D\	.	16f#/	.	16a\	.	.	.	.	.	.	.	.	.
.	.	16a/JJ)	.	16cc\JJ	.	.	.	.	.	.	.	.	.
!	!	!LO:LB:g=original	!	!	!	!	!	!	!	!	!	!	!
8D\	.	(16f#/LL	.	16a\LL	.	.	.	.	.	.	.	.	.
.	.	16a/	.	16cc\	.	.	.	.	.	.	.	.	.
8D\J	.	16f#/	.	16a\	.	.	.	.	.	.	.	.	.
.	.	16a/JJ)	.	16cc\JJ)	.	.	.	.	.	.	.	.	.
!	!	!	!	!LO:LB:g=original	!	!	!	!	!	!	!	!	!
=81	=81	=81	=81	=81	=81	=81	=81	=81	=81	=81	=81	=81	=81
!	!LO:DY:t=for	!	!LO:DY:t=for&colon;	!	!LO:DY:t=forte	!	!	!	!	!	!	!LO:N:xstem	!
8G\L	f	16d/LL	f	16b\LL	f	4G\	-rum	4g\	-rum	4b\	-rum	4g\	4b\
.	.	16b/	.	16gg\	.	.	.	.	.	.	.	.	.
8G\	.	16d/	.	16b\	.	.	.	.	.	.	.	.	.
.	.	16b/JJ	.	16gg\JJ	.	.	.	.	.	.	.	.	.
!	!LO:DY:t=p&colon;	!	!	!	!	!	!	!	!	!	!	!	!
8G\	p	16d/LL	.	16b\LL	.	2G\	et	2b\	Et	2gg\	Et	2g\	2b\
.	.	16b/	.	16gg\	.	.	.	.	.	.	.	.	.
8G\	.	16d/	.	16b\	.	.	.	.	.	.	.	.	.
.	.	16b/JJ	.	16gg\JJ	.	.	.	.	.	.	.	.	.
8G\	.	16d/LL	.	16b\LL	.	.	.	.	.	.	.	.	.
.	.	16b/	.	16gg\	.	.	.	.	.	.	.	.	.
8G\J	.	16d/	.	16b\	.	.	.	.	.	.	.	.	.
.	.	16b/JJ	.	16gg\JJ	.	.	.	.	.	.	.	.	.
!	!	!	!	!	!	!LO:LB:g=original	!	!	!	!	!	!LO:LB:g=original	!
=82	=82	=82	=82	=82	=82	=82	=82	=82	=82	=82	=82	=82	=82
!	!LO:DY:t=for	!	!	!	!	!	!	!	!	!	!	!	!
8c\L	f	16e/LL	.	16cc\LL	.	4c\	Vi-	4cc\	Vi-	4ee\	Vi-	4g\	4g\
.	.	16cc/	.	16ee\	.	.	.	.	.	.	.	.	.
8c\	.	16e/	.	16cc\	.	.	.	.	.	.	.	.	.
.	.	16cc/JJ	.	16ee\JJ	.	.	.	.	.	.	.	.	.
*	*	*	*	*rep	*	*	*	*	*	*	*	*	*
!	!LO:DY:t=p&colon;	!	!	!	!	!	!	!	!	!	!	!	!
8c\	p	16e/LL	.	16cc\LL	.	4c\	-tam	4cc\	-tam	4ee\	-tam	4g\	4g\
.	.	16cc/	.	16ee\	.	.	.	.	.	.	.	.	.
8c\	.	16e/	.	16cc\	.	.	.	.	.	.	.	.	.
.	.	16cc/JJ	.	16ee\JJ	.	.	.	.	.	.	.	.	.
*	*	*	*	*Xrep	*	*	*	*	*	*	*	*	*
*	*	*	*	*rep	*	*	*	*	*	*	*	*	*
8c\	.	16e/LL	.	16cc\LL	.	4c\	ven-	4cc\	ven-	4ee\	ven-	4g\	4g\
.	.	16cc/	.	16ee\	.	.	.	.	.	.	.	.	.
8c\J	.	16e/	.	16cc\	.	.	.	.	.	.	.	.	.
.	.	16cc/JJ	.	16ee\JJ	.	.	.	.	.	.	.	.	.
*	*	*	*	*Xrep	*	*	*	*	*	*	*	*	*
=83	=83	=83	=83	=83	=83	=83	=83	=83	=83	=83	=83	=83	=83
!	!LO:DY:t=for	!	!	!	!	!	!	!	!	!	!	!	!
8d\L	f	16B/LL	.	16d/LL	.	2d\	-tu-	2g\	-tu-	2b\	-tu-	2g\	2b\
.	.	16g/	.	16b/	.	.	.	.	.	.	.	.	.
8d\	.	16B/	.	16d/	.	.	.	.	.	.	.	.	.
.	.	16g/JJ	.	16b/JJ	.	.	.	.	.	.	.	.	.
*	*	*	*	*rep	*	*	*	*	*	*	*	*	*
!	!LO:DY:t=pia	!	!	!	!	!	!	!	!	!	!	!	!
8d\	p	16B/LL	.	16d/LL	.	.	.	.	.	.	.	.	.
.	.	16g/	.	16b/	.	.	.	.	.	.	.	.	.
8d\	.	16B/	.	16d/	.	.	.	.	.	.	.	.	.
.	.	16g/JJ	.	16b/JJ	.	.	.	.	.	.	.	.	.
*	*	*	*	*Xrep	*	*	*	*	*	*	*	*	*
*	*	*	*	*rep	*	*	*	*	*	*	*	*	*
8d\	.	16B/LL	.	16d/LL	.	4d\	-ri	4g/	-ri	4b\	-ri	4g\	4b\
.	.	16g/	.	16b/	.	.	.	.	.	.	.	.	.
8d\J	.	16B/	.	16d/	.	.	.	.	.	.	.	.	.
.	.	16g/JJ	.	16b/JJ	.	.	.	.	.	.	.	.	.
*	*	*	*	*Xrep	*	*	*	*	*	*	*	*	*
=84	=84	=84	=84	=84	=84	=84	=84	=84	=84	=84	=84	=84	=84
!	!LO:DY:t=for	!	!	!	!	!	!LO:MO:mod=Sae-	!	!LO:MO:mod=Sae-	!	!LO:MO:mod=Sae-	!	!
8D/L	f	16A/LL	.	16d/LL	.	4.D/	Se-	4.f#/	Se-	4.a\	Se-	4.d/	4.a\
.	.	16f#/	.	16a/	.	.	.	.	.	.	.	.	.
8D/	.	16A/	.	16d/	.	.	.	.	.	.	.	.	.
.	.	16f#/JJ	.	16a/JJ	.	.	.	.	.	.	.	.	.
*	*	*	*	*rep	*	*	*	*	*	*	*	*	*
!	!LO:DY:t=p&colon;	!	!	!	!	!	!	!	!	!	!	!	!
8D/	p	16A/LL	.	16d/LL	.	.	.	.	.	.	.	.	.
.	.	16f#/	.	16a/	.	.	.	.	.	.	.	.	.
8D/	.	16A/	.	16d/	.	8D/	-cu-	8f#/	-cu-	8a\	-cu-	8d/	8a\
.	.	16f#/JJ	.	16a/JJ	.	.	.	.	.	.	.	.	.
*	*	*	*	*Xrep	*	*	*	*	*	*	*	*	*
*	*	*	*	*rep	*	*	*	*	*	*	*	*	*
8D/	.	16A/LL	.	16d/LL	.	4D/	-li	4f#/	-li	4a\	-li	4d/	4a\
.	.	16f#/	.	16a/	.	.	.	.	.	.	.	.	.
8D/J	.	16A/	.	16d/	.	.	.	.	.	.	.	.	.
.	.	16f#/JJ	.	16a/JJ	.	.	.	.	.	.	.	.	.
*	*	*	*	*Xrep	*	*	*	*	*	*	*	*	*
!	!	!	!	!	!	!	!	!LO:LB:g=original	!	!	!	!	!
=85	=85	=85	=85	=85	=85	=85	=85	=85	=85	=85	=85	=85	=85
8G\L	.	16d/LL	.	16b\LL	.	4G\	Vi-	4b\	Vi-	4gg\	Vi-	4g\	4b\
.	.	16b/	.	16gg\	.	.	.	.	.	.	.	.	.
8G\	.	16d/	.	16b\	.	.	.	.	.	.	.	.	.
.	.	16b/JJ	.	16gg\JJ	.	.	.	.	.	.	.	.	.
*	*	*	*	*rep	*	*	*	*	*	*	*	*	*
8G\	.	16d/LL	.	16b\LL	.	4G\	-tam	4b\	-tam	4gg\	-tam	4g\	4b\
.	.	16b/	.	16gg\	.	.	.	.	.	.	.	.	.
8G\	.	16d/	.	16b\	.	.	.	.	.	.	.	.	.
.	.	16b/JJ	.	16gg\JJ	.	.	.	.	.	.	.	.	.
*	*	*	*	*Xrep	*	*	*	*	*	*	*	*	*
*	*	*	*	*rep	*	*	*	*	*	*	*	*	*
8G\	.	16d/LL	.	16b\LL	.	4G\	ven-	4b\	Ven-	4gg\	ven-	4g\	4b\
.	.	16b/	.	16gg\	.	.	.	.	.	.	.	.	.
8G\J	.	16d/	.	16b\	.	.	.	.	.	.	.	.	.
.	.	16b/JJ	.	16gg\JJ	.	.	.	.	.	.	.	.	.
*	*	*	*	*Xrep	*	*	*	*	*	*	*	*	*
!	!	!LO:LB:g=original	!	!	!	!	!	!	!	!LO:LB:g=original	!	!	!
=86	=86	=86	=86	=86	=86	=86	=86	=86	=86	=86	=86	=86	=86
8c\L	.	16e/LL	.	16cc\LL	.	2c\	-tu-	2cc\	-tu-	2ee\	-tu-	2g\	2g\
.	.	16cc/	.	16ee\	.	.	.	.	.	.	.	.	.
8c\	.	16e/	.	16cc\	.	.	.	.	.	.	.	.	.
.	.	16cc/JJ	.	16ee\JJ	.	.	.	.	.	.	.	.	.
*	*	*	*	*rep	*	*	*	*	*	*	*	*	*
8c\	.	16e/LL	.	16cc\LL	.	.	.	.	.	.	.	.	.
.	.	16cc/	.	16ee\	.	.	.	.	.	.	.	.	.
8c\	.	16e/	.	16cc\	.	.	.	.	.	.	.	.	.
.	.	16cc/JJ	.	16ee\JJ	.	.	.	.	.	.	.	.	.
*	*	*	*	*Xrep	*	*	*	*	*	*	*	*	*
*	*	*	*	*rep	*	*	*	*	*	*	*	*	*
8c\	.	16e/LL	.	16cc\LL	.	4c\	-ri	4cc\	-ri	4ee\	-ri	4g\	4g\
.	.	16cc/	.	16ee\	.	.	.	.	.	.	.	.	.
8c\J	.	16e/	.	16cc\	.	.	.	.	.	.	.	.	.
.	.	16cc/JJ	.	16ee\JJ	.	.	.	.	.	.	.	.	.
*	*	*	*	*Xrep	*	*	*	*	*	*	*	*	*
!	!	!	!	!LO:PB:g=original	!	!	!	!	!	!	!	!	!
=87	=87	=87	=87	=87	=87	=87	=87	=87	=87	=87	=87	=87	=87
!	!	!	!	!	!	!	!LO:MO:mod=Sae-	!	!LO:MO:mod=Sae-	!	!LO:MO:mod=sae	!	!
8d\L	.	16B/LL	.	16d/LL	.	4.d\	Se-	4.g/	Se-	4.b\	Se-	4.g\	4.b\
.	.	16g/	.	16b/	.	.	.	.	.	.	.	.	.
8d\	.	16B/	.	16d/	.	.	.	.	.	.	.	.	.
.	.	16g/JJ	.	16b/JJ	.	.	.	.	.	.	.	.	.
8d\	.	16B/LL	.	16d/LL	.	.	.	.	.	.	.	.	.
.	.	16g/	.	16b/	.	.	.	.	.	.	.	.	.
8d\	.	16B/	.	16d/	.	8d\	-cu-	8g/	-cu-	8b\	-cu-	8g\	8b\
.	.	16g/JJ	.	16b/JJ	.	.	.	.	.	.	.	.	.
8d\	.	16B/LL	.	16d/LL	.	4d\	-li	4g/	-li	4b\	-li	4g\	4b\
.	.	16g/	.	16b/	.	.	.	.	.	.	.	.	.
8d\J	.	16B/	.	16d/	.	.	.	.	.	.	.	.	.
.	.	16g/JJ	.	16b/JJ	.	.	.	.	.	.	.	.	.
=88	=88	=88	=88	=88	=88	=88	=88	=88	=88	=88	=88	=88	=88
8D/L	.	16A/LL	.	16d/LL	.	2.D\	a-	2.f#/	A-	2.a\	A-	2.d/	2.a\
.	.	16f#/	.	16a/	.	.	.	.	.	.	.	.	.
8D/	.	16A/	.	16d/	.	.	.	.	.	.	.	.	.
.	.	16f#/JJ	.	16a/JJ	.	.	.	.	.	.	.	.	.
8D/	.	16A/LL	.	16d/LL	.	.	.	.	.	.	.	.	.
.	.	16f#/	.	16a/	.	.	.	.	.	.	.	.	.
8D/	.	16A/	.	16d/	.	.	.	.	.	.	.	.	.
.	.	16f#/JJ	.	16a/JJ	.	.	.	.	.	.	.	.	.
8D/	.	16A/LL	.	16d/LL	.	.	.	.	.	.	.	.	.
.	.	16f#/	.	16a/	.	.	.	.	.	.	.	.	.
8D/J	.	16A/	.	16d/	.	.	.	.	.	.	.	.	.
.	.	16f#/JJ	.	16a/JJ	.	.	.	.	.	.	.	.	.
*Xtremolo	*	*	*	*	*	*	*	*	*	*	*	*	*
=89	=89	=89	=89	=89	=89	=89	=89	=89	=89	=89	=89	=89	=89
8G\L	.	4g/	.	4b\	.	8G\	-men	4g/	-men	4b\	-men	4g\	4b\
8A\	.	.	.	.	.	8A\	a-	.	.	.	.	.	.
8B\	.	4b/	.	4r	.	8B\L	.	4r	.	4r	.	4r	4r
8G\	.	.	.	.	.	8G\	.	.	.	.	.	.	.
!	!	!	!	!	!LO:DY:rj	!	!	!	!	!	!	!	!
8A\	.	4r	.	4dd\	f	8A\	.	4r	.	4dd\	A-	4r	4r
8B\J	.	.	.	.	.	8B\J	.	.	.	.	.	.	.
=90	=90	=90	=90	=90	=90	=90	=90	=90	=90	=90	=90	=90	=90
!	!	!	!	!	!	!	!	!	!	!	!	!	!LO:TX:a:t=20.
8c\L	.	4r	.	4ee\	.	8c\L	.	4r	.	4ee\	.	0.r	0.r
8d\	.	.	.	.	.	8d\J	.	.	.	.	.	.	.
!	!	!	!	!	!	!LO:LB:g=original	!	!	!	!	!	!	!
8e\	.	4a/	.	4cc\	.	8e\L	.	4a\	a-	4cc\	-men	.	.
8c\	.	.	.	.	.	8c\	.	.	.	.	.	.	.
8d\	.	4cc/	.	4r	.	8d\	.	4cc\	-men	4r	.	.	.
8e\J	.	.	.	.	.	8e\J	.	.	.	.	.	.	.
!LO:LB:g=original	!	!	!	!	!	!	!	!	!	!	!	!	!
=91	=91	=91	=91	=91	=91	=91	=91	=91	=91	=91	=91	=91	=91
*	*	*	*	*	*	*	*	*	*ij	*	*	*	*
8F#\L	.	4a/	.	4r	.	8F#\L	.	4a\	a-	4r	.	.	.
8G\	.	.	.	.	.	8G\	.	.	.	.	.	.	.
8A\	.	4f#/	.	4a\	.	8A\	.	4f#/	-men	4a\	A-	.	.
8F#\	.	.	.	.	.	8F#\	.	.	.	.	.	.	.
8G\	.	4r	.	4cc\	.	8G\	.	4r	.	4cc\	-men	.	.
8A\J	.	.	.	.	.	8A\J	.	.	.	.	.	.	.
=92	=92	=92	=92	=92	=92	=92	=92	=92	=92	=92	=92	=92	=92
*	*	*	*	*	*	*	*	*	*	*	*ij	*	*
8B\L	.	4r	.	4dd\	.	8B\L	.	4r	.	4dd\	A-	.	.
8c\	.	.	.	.	.	8c\	.	.	.	.	.	.	.
8d\	.	4g/	.	4b\	.	8d\	.	4g\	a-	4b\	-men	.	.
*	*	*	*	*	*	*	*	*	*	*	*Xij	*	*
8B\	.	.	.	.	.	8B\	.	.	.	.	.	.	.
8c\	.	4b/	.	4r	.	8c\	.	4b\	-men	4r	.	.	.
8d\J	.	.	.	.	.	8d\J	.	.	.	.	.	.	.
!	!	!LO:LB:g=original	!	!	!	!	!	!	!	!	!	!	!
=93	=93	=93	=93	=93	=93	=93	=93	=93	=93	=93	=93	=93	=93
8E\L	.	4g/	.	4r	.	8E\L	.	4g/	a-	4r	.	.	.
8F#\	.	.	.	.	.	8F#\	.	.	.	.	.	.	.
8G\	.	4e/	.	4g/	.	8G\	.	4e/	-men	4g\	A-	.	.
*	*	*	*	*	*	*	*	*	*Xij	*	*	*	*
8E\	.	.	.	.	.	8E\	.	.	.	.	.	.	.
8F#\	.	4r	.	4b/	.	8F#\	.	4r	.	4b\	-men	.	.
8G\J	.	.	.	.	.	8G\J	.	.	.	.	.	.	.
=94	=94	=94	=94	=94	=94	=94	=94	=94	=94	=94	=94	=94	=94
*	*	*	*	*	*	*	*	*	*	*	*ij	*	*
8A\L	.	4r	.	4cc\	.	8A\L	.	4r	.	4cc\	A-	0.r	0.r
8B\	.	.	.	.	.	8B\	.	.	.	.	.	.	.
8c\	.	4f#/	.	4a\	.	8c\	.	4f#/	a-	4a\	-men	.	.
*	*	*	*	*	*	*	*	*	*	*	*Xij	*	*
8A\	.	.	.	.	.	8A\	.	.	.	.	.	.	.
8B\	.	4a/	.	4r	.	8B\	.	4a\	-men	4r	.	.	.
8c\J	.	.	.	.	.	8c\J	.	.	.	.	.	.	.
!	!	!	!	!LO:LB:g=original	!	!	!	!LO:LB:g=original	!	!LO:LB:g=original	!	!	!
=95	=95	=95	=95	=95	=95	=95	=95	=95	=95	=95	=95	=95	=95
*	*	*	*	*	*	*	*	*	*ij	*	*	*	*
8D\L	.	4f#/	.	4r	.	8D\L	.	4f#/	a-	4r	.	.	.
8E\	.	.	.	.	.	8E\J	.	.	.	.	.	.	.
8F#\	.	4d/	.	4f#/	.	8F#\L	.	4d/	-men	4f#/	A-	.	.
8D\	.	.	.	.	.	8D\	.	.	.	.	.	.	.
8E\	.	4r	.	4a/	.	8E\	.	4r	.	4a\	-men	.	.
8F#\J	.	.	.	.	.	8F#\J	.	.	.	.	.	.	.
=96	=96	=96	=96	=96	=96	=96	=96	=96	=96	=96	=96	=96	=96
*	*	*	*	*	*	*	*	*	*	*	*ij	*	*
8G\L	.	4r	.	4b\	.	8G\L	.	4r	.	4g\	A-	.	.
8A\	.	.	.	.	.	8A\	.	.	.	.	.	.	.
8B\	.	4b/	.	4dd\	.	8B\	.	4b\	a-	4b\	-men	.	.
*	*	*	*	*	*	*	*	*	*	*	*Xij	*	*
8G\	.	.	.	.	.	8G\	.	.	.	.	.	.	.
8A\	.	4g/	.	4r	.	8A\	.	4g\	-men	4r	.	.	.
8B\J	.	.	.	.	.	8B\J	.	.	.	.	.	.	.
=97	=97	=97	=97	=97	=97	=97	=97	=97	=97	=97	=97	=97	=97
8G\L	.	4g/	.	4r	.	8G\L	.	4g/	a-	4r	.	.	.
8A\	.	.	.	.	.	8A\	.	.	.	.	.	.	.
8B\	.	4d/	.	4b\	.	8B\	.	4d/	-men	4b\	A-	.	.
8G\	.	.	.	.	.	8G\	.	.	.	.	.	.	.
8A\	.	4r	.	4dd\	.	8A\	.	4r	.	4dd\	-men	.	.
8B\J	.	.	.	.	.	8B\J	.	.	.	.	.	.	.
=98	=98	=98	=98	=98	=98	=98	=98	=98	=98	=98	=98	=98	=98
*	*	*	*	*	*	*	*	*	*	*	*ij	*	*
8c\L	.	4r	.	4ee\	.	8c\L	.	4r	.	4ee\	A-	0.r	0.r
8d\	.	.	.	.	.	8d\	.	.	.	.	.	.	.
8e\	.	4a/	.	4cc\	.	8e\	.	4a\	a-	4cc\	-men	.	.
*	*	*	*	*	*	*	*	*	*	*	*Xij	*	*
8c\	.	.	.	.	.	8c\	.	.	.	.	.	.	.
8d\	.	4cc\	.	4r	.	8d\	.	4cc\	-men	4r	.	.	.
8e\J	.	.	.	.	.	8e\J	.	.	.	.	.	.	.
!	!	!	!	!	!	!LO:LB:g=original	!	!	!	!	!	!	!
=99	=99	=99	=99	=99	=99	=99	=99	=99	=99	=99	=99	=99	=99
8F#\L	.	4a\	.	4r	.	8F#\L	.	4a\	a-	4r	.	.	.
8G\	.	.	.	.	.	8G\	.	.	.	.	.	.	.
8A\	.	4f#/	.	4a\	.	8A\	.	4f#/	-men	4a\	A-	.	.
8F#\	.	.	.	.	.	8F#\	.	.	.	.	.	.	.
8G\	.	4r	.	4cc\	.	8G\	.	4r	.	4cc\	-men	.	.
8A\J	.	.	.	.	.	8A\J	.	.	.	.	.	.	.
=100	=100	=100	=100	=100	=100	=100	=100	=100	=100	=100	=100	=100	=100
*	*	*	*	*	*	*	*	*	*	*	*ij	*	*
8B\L	.	4r	.	4dd\	.	8B\L	.	4r	.	4dd\	A-	.	.
8c\	.	.	.	.	.	8c\	.	.	.	.	.	.	.
8d\	.	4g/	.	4b\	.	8d\	.	4g\	a-	4b\	-men	.	.
*	*	*	*	*	*	*	*	*	*	*	*Xij	*	*
8B\	.	.	.	.	.	8B\	.	.	.	.	.	.	.
8c\	.	4b/	.	4r	.	8c\	.	4b\	-men	4r	.	.	.
8d\J	.	.	.	.	.	8d\J	.	.	.	.	.	.	.
=101	=101	=101	=101	=101	=101	=101	=101	=101	=101	=101	=101	=101	=101
8E\L	.	4g/	.	4r	.	8E\L	.	4g/	a-	4r	.	.	.
8F#\	.	.	.	.	.	8F#\	.	.	.	.	.	.	.
8G\	.	4e/	.	4g/	.	8G\	.	4e/	-men	4g\	A-	.	.
*	*	*	*	*	*	*	*	*	*Xij	*	*	*	*
8E\	.	.	.	.	.	8E\	.	.	.	.	.	.	.
8F#\	.	4r	.	4b/	.	8F#\	.	4r	.	4b\	-men	.	.
8G\J	.	.	.	.	.	8G\J	.	.	.	.	.	.	.
=102	=102	=102	=102	=102	=102	=102	=102	=102	=102	=102	=102	=102	=102
*	*	*	*	*	*	*	*	*	*	*	*ij	*	*
8A\L	.	4r	.	4cc\	.	8A\L	.	4r	.	4cc\	A-	0.r	0.r
8B\	.	.	.	.	.	8B\	.	.	.	.	.	.	.
8c\	.	4f#/	.	4a\	.	8c\	.	4f#\	A-	4a\	-men	.	.
*	*	*	*	*	*	*	*	*	*	*	*Xij	*	*
8A\	.	.	.	.	.	8A\	.	.	.	.	.	.	.
8B\	.	4a/	.	4r	.	8B\	.	4a\	-men	4r	.	.	.
8c\J	.	.	.	.	.	8c\J	.	.	.	.	.	.	.
!	!	!LO:LB:g=original	!	!	!	!	!	!	!	!LO:LB:g=original	!	!	!
=103	=103	=103	=103	=103	=103	=103	=103	=103	=103	=103	=103	=103	=103
!LO:TX:t=P:problem=takty nr 103-104 dopisane pod pięciolinią	!	!	!	!	!	!	!	!	!	!	!	!	!
8D\L	.	4f#/	.	4r	.	8D\L	.	4f#/	A-	4r	.	.	.
8E\	.	.	.	.	.	8E\	.	.	.	.	.	.	.
8F#\	.	4d/	.	4f#/	.	8F#\	.	4d/	-men	4f#/	A-	.	.
8D\	.	.	.	.	.	8D\	.	.	.	.	.	.	.
8E\	.	4r	.	4a/	.	8E\	.	4r	.	4a\	-men	.	.
8F#\J	.	.	.	.	.	8F#\J	.	.	.	.	.	.	.
=104	=104	=104	=104	=104	=104	=104	=104	=104	=104	=104	=104	=104	=104
*	*	*	*	*	*	*	*	*	*	*	*ij	*	*
8G\L	.	4g/	.	4b/	.	4G\	-men	2.r	.	4b\	A-	.	.
8A\	.	.	.	.	.	.	.	.	.	.	.	.	.
8B\	.	4B/	.	4g/	.	4r	.	.	.	4g/	-men	.	.
8G\	.	.	.	.	.	.	.	.	.	.	.	.	.
*	*	*	*	*	*	*	*	*	*	*	*Xij	*	*
!LO:TX:b:i:t=Sig.	!	!	!	!	!	!	!	!	!	!	!	!	!
8A\	.	4b\	.	8r	.	4r	.	.	.	4r	.	.	.
8B\J	.	.	.	8dd\	.	.	.	.	.	.	.	.	.
!LO:LB:g=original	!	!	!	!LO:LB:g=original	!	!	!	!	!	!	!	!	!
=105	=105	=105	=105	=105	=105	=105	=105	=105	=105	=105	=105	=105	=105
8C/L	.	8cc\L	.	8ee\L	f	8C/L	a-	4cc\	A-	4ee\	A-	.	.
8BB/	.	8ee\	.	8gg\	.	8BB/	.	.	.	.	.	.	.
8C/	.	8ee\	.	8gg\	.	8C/	.	4ee\	-men	4gg\	-men	.	.
8D/	.	8ee\	.	8gg\	.	8D/	.	.	.	.	.	.	.
8E/	.	8ee\	.	8gg\	.	8E/	.	4r	.	4r	.	.	.
8F#/J	.	8ee\J	.	8gg\J	.	8F#/J	.	.	.	.	.	.	.
!	!	!	!	!	!	!	!	!LO:LB:g=original	!	!	!	!	!
=106	=106	=106	=106	=106	=106	=106	=106	=106	=106	=106	=106	=106	=106
!	!	!	!LO:DY:t=p&colon;	!	!	!	!	!	!	!	!	!	!
4G\	p	(4b/	p	4dd\	p	4G\	-men	4b\	A-	4dd\	A-	0.r	0.r
4D/	.	4a/	.	4cc\	.	4r	.	4aT\	.	4ccT\	.	.	.
4GG/	.	4g/)	.	4b\	.	4r	.	4g\	-men	4b\	-men	.	.
!	!	!	!	!	!	!LO:LB:g=original	!	!	!	!	!	!	!
=107	=107	=107	=107	=107	=107	=107	=107	=107	=107	=107	=107	=107	=107
8C/L	f	8cc\L	f	8ee\L	f	8C/L	a-	4cc\	A-	4ee\	a-	.	.
8BB/	.	8ee\	.	8gg\	.	8BB/	.	.	.	.	.	.	.
8C/	.	8ee\	.	8gg\	.	8C/	.	4ee\	-men	4gg\	-men	.	.
8D/	.	8ee\	.	8gg\	.	8D/	.	.	.	.	.	.	.
8E/	.	8ee\	.	8gg\	.	8E/	.	4r	.	4r	.	.	.
8F#/J	.	8ee\J	.	8gg\J	.	8F#/J	.	.	.	.	.	.	.
=108	=108	=108	=108	=108	=108	=108	=108	=108	=108	=108	=108	=108	=108
!	!	!	!LO:DY:t=p&colon;	!	!LO:DY:t=pia	!	!	!	!	!	!	!	!
4G\	.	4b/	p	4dd\	p	4G\	-men	4b\	A-	4dd\	A-	.	.
4D/	.	4a/	.	4cc\	.	4r	.	4aT\	.	4ccT\	.	.	.
4GG/	.	4g/	.	4b\	.	4r	.	4g\	-men	4b\	-men	.	.
=109	=109	=109	=109	=109	=109	=109	=109	=109	=109	=109	=109	=109	=109
*	*	*	*	*Xtuplet	*	*	*	*	*	*	*	*	*
!LO:TX:t=P:problem=mixed beam	!	!	!	!	!	!	!	!	!	!	!	!	!
8C/L	.	12cc/L	.	12ee\L	.	4c\	a-	12cc\L	A-	12ee\L	A-	.	.
.	.	12b/	.	12dd\	.	.	.	12b\	.	12dd\	.	.	.
8c\	.	.	.	.	.	.	.	.	.	.	.	.	.
.	.	12a/J	.	12cc\J	.	.	.	12a\J	.	12cc\J	.	.	.
8d\	.	4g/	.	4b/	.	4d\	.	4g/	.	4b\	.	.	.
8d\	.	.	.	.	.	.	.	.	.	.	.	.	.
8D/	.	4f#t/	.	4aT/	.	4D\	.	4f#t/	.	4a\	.	.	.
*	*	*	*	*	*	*	*	*	*	*	*	*	*custos:cc
!	!	!	!	!	!	!	!	!	!	!	!	!	!LO:TX:b:t=Volti
8D/J	.	.	.	.	.	.	.	.	.	.	.	.	.
!	!	!	!	!	!	!	!	!	!	!	!	!	!LO:PB:g=original
=110	=110	=110	=110	=110	=110	=110	=110	=110	=110	=110	=110	=110	=110
4G\	f	4g/	.	4g/	f	4G\	-men	4g\	-men	4g\	-men	4g\	4b\
4G\	.	4b 4d/	.	4gg 4b 4d/	.	4G\	a-	4b\	A-	4gg\	[A]-	4g\	4b\
4D\	.	4a 4d/	.	4ff# 4a 4d/	.	4D\	.	4a\	.	4ff#\	.	4d/	4a\
!	!	!	!	!	!	!	!	!	!	!LO:LB:g=original	!	!	!
=111	=111	=111	=111	=111	=111	=111	=111	=111	=111	=111	=111	=111	=111
4G\	.	4b 4d/	.	4gg 4b 4d/	.	4G\	-men	4b\	-men	4gg\	-men	4g\	4b\
4G\	.	4b 4d/	.	4gg 4b 4d/	.	4G\	a-	4b\	a-	4gg\	a-	4g\	4b\
4D/	.	4a 4d/	.	4ff# 4a 4d/	.	4D\	.	4a\	.	4ff#\	.	4d/	4a\
!	!	!LO:LB:g=original	!	!	!	!	!	!	!	!	!	!	!
=112	=112	=112	=112	=112	=112	=112	=112	=112	=112	=112	=112	=112	=112
4G\	.	4b 4d/	.	4gg 4b 4d/	.	4G\	-men	4b\	-men	4gg\	-men	4g\	4b\
4r	.	4r	.	4r	.	4r	.	4r	.	4r	.	4r	4r
*	*	*	*	*	*	*	*ij	*	*	*	*ij	*	*
!	!	!	!	!	!	!	!	!	!	!	!	!LO:N:vis=4	!
4D/	.	4a 4d/	.	4ff# 4a 4d/	.	4D\	a-	4a\	a-	4ff#\	a-	8d/	4a\
!	!	!	!	!	!	!	!	!	!	!	!	!LO:N:vis=4	!
!	!	!	!	!	!	!	!	!	!	!	!	!LO:TX:t=P:problem=w źródle zbędna pauza 4r	!
.	.	.	.	.	.	.	.	.	.	.	.	8r	.
=113	=113	=113	=113	=113	=113	=113	=113	=113	=113	=113	=113	=113	=113
4G\	.	4b 4d/	.	4gg 4b 4d/	.	4G\	-men	4b\	-men	4gg\	-men	4g\	4b\
4r	.	4r	.	4r	.	4r	.	4r	.	4r	.	4r	4r
!	!	!	!	!	!	!	!	!	!	!	!	!LO:N:vis=4	!
4D\	.	4a 4d/	.	4ff# 4a 4d/	.	4D\	a-	4a\	a-	4ff#\	a-	8d/	4a\
!	!	!	!	!	!	!	!	!	!	!	!	!LO:N:vis=4	!
!	!	!	!	!	!	!	!	!	!	!	!	!LO:TX:t=P:problem=w źródle zbędna pauza 4r	!
.	.	.	.	.	.	.	.	.	.	.	.	8r	.
=114	=114	=114	=114	=114	=114	=114	=114	=114	=114	=114	=114	=114	=114
!	!	!	!	!	!	!	!	!LO:TX:t=P:problem=takty nr 114-115 oznaczone znakiem repetycji	!	!	!	!	!
4G\	.	4b 4d/	.	4gg 4b 4d/	.	4G\	-men	4b\yy	-men	4gg\	-men	4g\	4b\
4r	.	4r	.	4r	.	4r	.	4ryy	.	4r	.	4r	4r
!	!	!	!	!	!	!	!	!	!	!	!	!LO:N:vis=4	!
4D/	.	4a 4d/	.	4ff# 4a 4d/	.	4D\	a-	4a\yy	a-	4ff#\	a-	8d/	4a\
!	!	!	!	!	!	!	!	!	!	!	!	!LO:N:vis=4	!
!	!	!	!	!	!	!	!	!	!	!	!	!LO:TX:t=P:problem=w źródle zbędna pauza 4r	!
.	.	.	.	.	.	.	.	.	.	.	.	8r	.
!	!	!	!	!LO:LB:g=original	!	!	!	!	!	!	!	!	!
=115	=115	=115	=115	=115	=115	=115	=115	=115	=115	=115	=115	=115	=115
4G\	.	4b 4d/	.	4gg 4b 4d/	.	4G\	-men	4b\yy	-men	4gg\	-men	4g\	4b\
*	*	*	*	*	*	*	*	*	*	*	*Xij	*	*
4r	.	4r	.	4r	.	4r	.	4ryy	.	4r	.	4r	4r
!	!	!	!	!	!	!	!	!	!	!	!	!LO:N:vis=4	!
4D\	.	4a 4d/	.	4ff# 4a 4d/	.	4D\	a-	4a\yy	a-	4ff#\	a-	8d/	4a\
!	!	!	!	!	!	!	!	!	!	!	!	!LO:N:vis=4	!
!	!	!	!	!	!	!	!	!	!	!	!	!LO:TX:t=P:problem=w źródle zbędna pauza 4r	!
.	.	.	.	.	.	.	.	.	.	.	.	8r	.
=116	=116	=116	=116	=116	=116	=116	=116	=116	=116	=116	=116	=116	=116
4G\	.	4b 4d/	.	4gg 4b 4d/	.	4G\	-men	4b\	-men	4gg\	-men	4g\	4b\
*	*	*	*	*	*	*	*Xij	*	*	*	*	*	*
4G\	.	4b 4d/	.	4gg 4b 4d/	.	4r	.	4r	.	4r	.	4g\	4b\
4G\	.	4b 4d/	.	4gg 4b 4d/	.	4G\	a-	4b\	a-	4gg\	a-	4g\	4b\
=117	=117	=117	=117	=117	=117	=117	=117	=117	=117	=117	=117	=117	=117
2G\	.	2b 2d/	.	2gg 2b 2d/	.	2G\	-men	2b\	-men	2gg\	-men	2g\	2b\
4r	.	4r	.	4r	.	4r	.	4r	.	4r	.	4r	4r
==	==	==	==	==	==	==	==	==	==	==	==	==	==
*-	*-	*-	*-	*-	*-	*-	*-	*-	*-	*-	*-	*-	*-
!!!system-decoration: [(s1,s2)][(g1)][(s6,s7)]<s8>
!!!RDF**dynam: f = "for."
!!!RDF**dynam: p = "pia."
!!!ENC: Kamil Watkowski
!!!END: 2020-08-20
!!!ENC: Andrzej Kubiczek
!!!END: 2021-11-07
!!!YEC: Copyright 2022 Narodowy Instytut Fryderyka Chopina (https://polishscores.org)
!!!YEM: License CC-BY-4.0 (https://creativecommons.org/licenses/by/4.0)
